; generated by Slic3r 1.36.2-prusa3d on 2018-06-17 at 15:12:18

; 

; external perimeters extrusion width = 0.45mm
; perimeters extrusion width = 0.45mm
; infill extrusion width = 0.45mm
; solid infill extrusion width = 0.45mm
; top infill extrusion width = 0.40mm
; first layer extrusion width = 0.20mm

M107
; Monoprice Mini Delta
M109 S190.0 ; set extruder temperature
G21 ; set units to millimeters
G90 ; absolute positioning
M82 ; extruder to absolute mode
M107 ; turn off fan
G28 ; home all axes
G29 C-0.8 Z0.3
; Other leveling setups, not tested
;G29 P2; automatic bed levelling, 3 corners and center, double tap
;G29 P3 Z0.5 V4; automatic bed levelling with detailed report, 3x3 matrix, double tap
G1 Z15.0 F4800 ;move the platform down 15mm
G92 E0 ;zero the extruded length
G1 F200 E3  ;extrude 3mm of feed stock
G92 E0  ;zero the extruded length again
G1 F4800
;Put printing message on LCD screen
M117 Printing...
; Filament gcode

G21 ; set units to millimeters
G90 ; use absolute coordinates
M82 ; use absolute distances for extrusion
G92 E0
G1 Z0.200 F7800.000
G1 E-1.00000 F2400.00000
G92 E0
G1 X-0.014 Y-19.047 F7800.000
G1 E1.00000 F1500.00000
G1 F1200
G1 X12.706 Y-19.057 E1.36148
G1 X13.834 Y-18.955 E1.39365
G1 X14.931 Y-18.653 E1.42600
G1 X15.952 Y-18.162 E1.45817
G1 X16.874 Y-17.495 E1.49052
G1 X17.658 Y-16.678 E1.52270
G1 X18.288 Y-15.730 E1.55505
G1 X18.739 Y-14.685 E1.58740
G1 X18.996 Y-13.576 E1.61974
G1 X19.057 Y-12.713 E1.64433
G1 X19.051 Y12.980 E2.37445
G1 X18.928 Y13.974 E2.40292
G1 X18.650 Y14.937 E2.43139
G1 X18.225 Y15.844 E2.45986
G1 X17.663 Y16.673 E2.48833
G1 X16.693 Y17.647 E2.52737
G1 X15.537 Y18.389 E2.56641
G1 X14.248 Y18.866 E2.60545
G1 X12.887 Y19.054 E2.64450
G1 X-12.999 Y19.050 E3.38010
G1 X-13.987 Y18.926 E3.40840
G1 X-14.949 Y18.646 E3.43686
G1 X-15.850 Y18.222 E3.46516
G1 X-16.673 Y17.663 E3.49345
G1 X-17.647 Y16.693 E3.53249
G1 X-18.389 Y15.537 E3.57153
G1 X-18.866 Y14.248 E3.61058
G1 X-19.054 Y12.887 E3.64962
G1 X-19.050 Y-12.999 E4.38523
G1 X-18.926 Y-13.987 E4.41352
G1 X-18.648 Y-14.943 E4.44181
G1 X-18.225 Y-15.844 E4.47010
G1 X-17.666 Y-16.668 E4.49840
G1 X-16.756 Y-17.595 E4.53533
G1 X-15.681 Y-18.315 E4.57208
G1 X-14.477 Y-18.804 E4.60901
G1 X-13.198 Y-19.038 E4.64594
G1 X-0.074 Y-19.047 E5.01888
G1 E4.01888 F2400.00000
G92 E0
G1 X-2.626 Y-6.774 F7800.000
G1 E1.00000 F1500.00000
G1 F1200
G1 X-1.990 Y-6.987 E1.01907
G1 X-1.336 Y-7.141 E1.03815
G1 X-0.667 Y-7.234 E1.05736
G1 X-0.001 Y-7.265 E1.07629
G1 X0.669 Y-7.234 E1.09536
G1 X1.334 Y-7.142 E1.11443
G1 X1.987 Y-6.988 E1.13350
G1 X2.624 Y-6.775 E1.15257
G1 X3.237 Y-6.504 E1.17164
G1 X3.824 Y-6.177 E1.19072
G1 X4.378 Y-5.798 E1.20979
G1 X4.894 Y-5.369 E1.22886
G1 X5.369 Y-4.895 E1.24793
G1 X5.797 Y-4.379 E1.26700
G1 X6.177 Y-3.825 E1.28607
G1 X6.503 Y-3.239 E1.30514
G1 X6.774 Y-2.625 E1.32422
G1 X6.988 Y-1.988 E1.34329
G1 X7.141 Y-1.335 E1.36236
G1 X7.234 Y-0.670 E1.38143
G1 X7.265 Y-0.000 E1.40050
G1 X7.234 Y0.670 E1.41957
G1 X7.141 Y1.335 E1.43865
G1 X6.988 Y1.988 E1.45772
G1 X6.774 Y2.625 E1.47679
G1 X6.503 Y3.239 E1.49586
G1 X6.177 Y3.825 E1.51493
G1 X5.797 Y4.379 E1.53400
G1 X5.372 Y4.891 E1.55293
G1 X4.894 Y5.369 E1.57214
G1 X4.378 Y5.798 E1.59122
G1 X3.824 Y6.177 E1.61029
G1 X3.237 Y6.504 E1.62936
G1 X2.624 Y6.775 E1.64843
G1 X1.987 Y6.988 E1.66750
G1 X1.334 Y7.142 E1.68658
G1 X0.669 Y7.234 E1.70565
G1 X-0.001 Y7.265 E1.72472
G1 X-0.672 Y7.234 E1.74379
G1 X-1.336 Y7.141 E1.76286
G1 X-1.990 Y6.987 E1.78193
G1 X-2.626 Y6.774 E1.80101
G1 X-3.240 Y6.503 E1.82008
G1 X-3.826 Y6.176 E1.83915
G1 X-4.380 Y5.797 E1.85822
G1 X-4.892 Y5.371 E1.87715
G1 X-5.370 Y4.893 E1.89636
G1 X-5.799 Y4.376 E1.91543
G1 X-6.178 Y3.823 E1.93451
G1 X-6.504 Y3.236 E1.95358
G1 X-6.775 Y2.622 E1.97265
G1 X-6.988 Y1.986 E1.99172
G1 X-7.142 Y1.332 E2.01079
G1 X-7.234 Y0.668 E2.02986
G1 X-7.265 Y-0.003 E2.04893
G1 X-7.234 Y-0.668 E2.06786
G1 X-7.142 Y-1.332 E2.08693
G1 X-6.988 Y-1.986 E2.10600
G1 X-6.775 Y-2.622 E2.12507
G1 X-6.504 Y-3.236 E2.14414
G1 X-6.178 Y-3.823 E2.16321
G1 X-5.799 Y-4.376 E2.18228
G1 X-5.370 Y-4.893 E2.20135
G1 X-4.896 Y-5.368 E2.22043
G1 X-4.380 Y-5.797 E2.23950
G1 X-3.826 Y-6.176 E2.25857
G1 X-3.240 Y-6.503 E2.27764
G1 X-2.681 Y-6.750 E2.29501
G1 X-2.497 Y-6.441 F7800.000
G1 F1200
G1 X-1.892 Y-6.644 E2.31314
G1 X-1.271 Y-6.790 E2.33128
G1 X-0.634 Y-6.878 E2.34955
G1 X-0.001 Y-6.908 E2.36754
G1 X0.636 Y-6.878 E2.38567
G1 X1.268 Y-6.790 E2.40381
G1 X1.889 Y-6.644 E2.42194
G1 X2.494 Y-6.442 E2.44007
G1 X3.078 Y-6.184 E2.45821
G1 X3.636 Y-5.873 E2.47634
G1 X4.162 Y-5.513 E2.49447
G1 X4.653 Y-5.105 E2.51261
G1 X5.104 Y-4.654 E2.53074
G1 X5.512 Y-4.163 E2.54887
G1 X5.873 Y-3.637 E2.56700
G1 X6.183 Y-3.079 E2.58514
G1 X6.441 Y-2.496 E2.60327
G1 X6.644 Y-1.891 E2.62140
G1 X6.790 Y-1.269 E2.63954
G1 X6.878 Y-0.637 E2.65767
G1 X6.908 Y-0.000 E2.67580
G1 X6.878 Y0.637 E2.69394
G1 X6.790 Y1.269 E2.71207
G1 X6.644 Y1.891 E2.73020
G1 X6.441 Y2.496 E2.74834
G1 X6.183 Y3.079 E2.76647
G1 X5.873 Y3.637 E2.78460
G1 X5.512 Y4.163 E2.80274
G1 X5.108 Y4.650 E2.82073
G1 X4.653 Y5.105 E2.83900
G1 X4.162 Y5.513 E2.85714
G1 X3.636 Y5.873 E2.87527
G1 X3.078 Y6.184 E2.89340
G1 X2.494 Y6.442 E2.91154
G1 X1.889 Y6.644 E2.92967
G1 X1.268 Y6.790 E2.94780
G1 X0.636 Y6.878 E2.96594
G1 X-0.001 Y6.908 E2.98407
G1 X-0.639 Y6.878 E3.00220
G1 X-1.271 Y6.790 E3.02033
G1 X-1.892 Y6.644 E3.03847
G1 X-2.497 Y6.441 E3.05660
G1 X-3.080 Y6.183 E3.07473
G1 X-3.638 Y5.872 E3.09287
G1 X-4.164 Y5.511 E3.11100
G1 X-4.651 Y5.107 E3.12899
G1 X-5.106 Y4.652 E3.14726
G1 X-5.514 Y4.161 E3.16540
G1 X-5.874 Y3.635 E3.18353
G1 X-6.184 Y3.077 E3.20167
G1 X-6.442 Y2.493 E3.21980
G1 X-6.645 Y1.888 E3.23793
G1 X-6.790 Y1.267 E3.25607
G1 X-6.878 Y0.635 E3.27420
G1 X-6.908 Y-0.002 E3.29233
G1 X-6.878 Y-0.635 E3.31032
G1 X-6.790 Y-1.267 E3.32845
G1 X-6.645 Y-1.888 E3.34659
G1 X-6.442 Y-2.493 E3.36472
G1 X-6.184 Y-3.077 E3.38285
G1 X-5.874 Y-3.635 E3.40099
G1 X-5.514 Y-4.161 E3.41912
G1 X-5.106 Y-4.652 E3.43725
G1 X-4.655 Y-5.104 E3.45539
G1 X-4.164 Y-5.511 E3.47352
G1 X-3.638 Y-5.872 E3.49165
G1 X-3.080 Y-6.183 E3.50978
G1 X-2.552 Y-6.416 E3.52621
G1 X-2.368 Y-6.107 F7800.000
G1 F1200
G1 X-1.794 Y-6.300 E3.54341
G1 X-1.205 Y-6.438 E3.56060
G1 X-0.601 Y-6.522 E3.57793
G1 X-0.001 Y-6.550 E3.59499
G1 X0.603 Y-6.522 E3.61219
G1 X1.203 Y-6.439 E3.62938
G1 X1.792 Y-6.300 E3.64658
G1 X2.365 Y-6.108 E3.66377
G1 X2.919 Y-5.864 E3.68097
G1 X3.448 Y-5.570 E3.69816
G1 X3.947 Y-5.228 E3.71536
G1 X4.412 Y-4.841 E3.73255
G1 X4.840 Y-4.413 E3.74975
G1 X5.227 Y-3.948 E3.76694
G1 X5.569 Y-3.449 E3.78413
G1 X5.863 Y-2.920 E3.80133
G1 X6.108 Y-2.366 E3.81852
G1 X6.300 Y-1.793 E3.83572
G1 X6.439 Y-1.204 E3.85291
G1 X6.522 Y-0.604 E3.87011
G1 X6.550 Y-0.000 E3.88730
G1 X6.522 Y0.604 E3.90450
G1 X6.439 Y1.204 E3.92169
G1 X6.300 Y1.793 E3.93889
G1 X6.108 Y2.366 E3.95608
G1 X5.863 Y2.920 E3.97328
G1 X5.569 Y3.449 E3.99047
G1 X5.227 Y3.948 E4.00767
G1 X4.843 Y4.410 E4.02473
G1 X4.412 Y4.841 E4.04206
G1 X3.947 Y5.228 E4.05925
G1 X3.448 Y5.570 E4.07645
G1 X2.919 Y5.864 E4.09364
G1 X2.365 Y6.108 E4.11084
G1 X1.792 Y6.300 E4.12803
G1 X1.203 Y6.439 E4.14523
G1 X0.603 Y6.522 E4.16242
G1 X-0.001 Y6.550 E4.17962
G1 X-0.606 Y6.522 E4.19681
G1 X-1.205 Y6.438 E4.21401
G1 X-1.794 Y6.300 E4.23120
G1 X-2.368 Y6.107 E4.24840
G1 X-2.921 Y5.863 E4.26559
G1 X-3.450 Y5.568 E4.28279
G1 X-3.949 Y5.226 E4.29998
G1 X-4.411 Y4.843 E4.31704
G1 X-4.842 Y4.411 E4.33437
G1 X-5.228 Y3.946 E4.35156
G1 X-5.570 Y3.447 E4.36876
G1 X-5.864 Y2.918 E4.38595
G1 X-6.109 Y2.364 E4.40315
G1 X-6.301 Y1.790 E4.42034
G1 X-6.439 Y1.201 E4.43754
G1 X-6.522 Y0.602 E4.45473
G1 X-6.550 Y-0.002 E4.47193
G1 X-6.522 Y-0.602 E4.48899
G1 X-6.439 Y-1.201 E4.50618
G1 X-6.301 Y-1.790 E4.52337
G1 X-6.109 Y-2.364 E4.54057
G1 X-5.864 Y-2.918 E4.55776
G1 X-5.570 Y-3.447 E4.57496
G1 X-5.228 Y-3.946 E4.59215
G1 X-4.842 Y-4.411 E4.60935
G1 X-4.414 Y-4.839 E4.62654
G1 X-3.949 Y-5.226 E4.64374
G1 X-3.450 Y-5.568 E4.66093
G1 X-2.921 Y-5.863 E4.67813
G1 X-2.422 Y-6.083 E4.69362
G1 X-2.306 Y-6.503 F7800.000
G1 E3.69362 F2400.00000
G92 E0
G1 X-11.786 Y-11.786 F7800.000
G1 E1.00000 F1500.00000
G1 F1200
G1 X11.786 Y-11.786 E1.66983
G1 X11.786 Y11.786 E2.33967
G1 X-11.786 Y11.786 E3.00950
G1 X-11.786 Y-11.726 E3.67763
G1 X-12.143 Y-12.143 F7800.000
G1 F1200
G1 X12.143 Y-12.143 E4.36775
G1 X12.143 Y12.143 E5.05788
G1 X-12.143 Y12.143 E5.74801
G1 X-12.143 Y-12.083 E6.43643
G1 X-12.500 Y-12.500 F7800.000
G1 F1200
G1 X12.500 Y-12.500 E7.14685
G1 X12.500 Y12.500 E7.85727
G1 X-12.500 Y12.500 E8.56769
G1 X-12.500 Y-12.440 E9.27641
G1 X-12.114 Y-12.396 F7800.000
G1 E8.27641 F2400.00000
G92 E0
G1 X-10.952 Y11.679 F7800.000
G1 E1.00000 F1500.00000
G1 F1200
G1 X-11.518 Y11.112 E1.02293
G1 X-11.518 Y10.604 E1.03749
G1 X-10.604 Y11.518 E1.07450
G1 X-10.095 Y11.518 E1.08906
G1 X-11.518 Y10.095 E1.14666
G1 X-11.518 Y9.587 E1.16122
G1 X-9.587 Y11.518 E1.23941
G1 X-9.078 Y11.518 E1.25396
G1 X-11.518 Y9.078 E1.35274
G1 X-11.518 Y8.570 E1.36730
G1 X-8.570 Y11.518 E1.48666
G1 X-8.061 Y11.518 E1.50122
G1 X-11.518 Y8.061 E1.64117
G1 X-11.518 Y7.553 E1.65573
G1 X-7.553 Y11.518 E1.81627
G1 X-7.044 Y11.518 E1.83083
G1 X-11.518 Y7.044 E2.01195
G1 X-11.518 Y6.535 E2.02651
G1 X-6.535 Y11.518 E2.22823
G1 X-6.027 Y11.518 E2.24278
G1 X-11.518 Y6.027 E2.46509
G1 X-11.518 Y5.518 E2.47964
G1 X-5.518 Y11.518 E2.72253
G1 X-5.010 Y11.518 E2.73709
G1 X-11.518 Y5.010 E3.00057
G1 X-11.518 Y4.501 E3.01513
G1 X-4.501 Y11.518 E3.29919
G1 X-3.993 Y11.518 E3.31375
G1 X-11.518 Y3.993 E3.61841
G1 X-11.518 Y3.484 E3.63296
G1 X-3.484 Y11.518 E3.95821
G1 X-2.976 Y11.518 E3.97276
G1 X-11.518 Y2.976 E4.31859
G1 X-11.518 Y2.467 E4.33315
G1 X-2.467 Y11.518 E4.69957
G1 X-1.958 Y11.518 E4.71413
G1 X-11.518 Y1.958 E5.10113
G1 X-11.518 Y1.450 E5.11569
G1 X-1.450 Y11.518 E5.52328
G1 X-0.941 Y11.518 E5.53784
G1 X-11.518 Y0.941 E5.96602
G1 X-11.518 Y0.433 E5.98058
G1 X-0.433 Y11.518 E6.42934
G1 X0.076 Y11.518 E6.44390
G1 X-11.518 Y-0.076 E6.91326
G1 X-11.518 Y-0.584 E6.92782
G1 X0.745 Y11.679 E7.42426
G1 E6.42426 F2400.00000
G92 E0
G1 X11.679 Y1.762 F7800.000
G1 E1.00000 F1500.00000
G1 F1200
G1 X6.889 Y-3.027 E1.19389
G1 X7.024 Y-2.722 E1.20345
G1 X7.195 Y-2.213 E1.21880
G1 X11.518 Y2.110 E1.39382
G1 X11.518 Y2.619 E1.40837
G1 X7.371 Y-1.529 E1.57626
G1 X7.469 Y-0.921 E1.59387
G1 X11.518 Y3.127 E1.75777
G1 X11.518 Y3.636 E1.77232
G1 X7.516 Y-0.366 E1.93433
G1 X7.526 Y0.152 E1.94917
G1 X11.518 Y4.144 E2.11078
G1 X11.518 Y4.653 E2.12534
G1 X7.504 Y0.638 E2.28785
G1 X7.446 Y1.089 E2.30086
G1 X11.518 Y5.161 E2.46571
G1 X11.518 Y5.670 E2.48027
G1 X7.372 Y1.524 E2.64811
G1 X7.275 Y1.936 E2.66022
G1 X11.518 Y6.178 E2.83198
G1 X11.518 Y6.687 E2.84654
G1 X7.157 Y2.326 E3.02309
G1 X7.029 Y2.707 E3.03459
G1 X11.518 Y7.195 E3.21631
G1 X11.518 Y7.704 E3.23087
G1 X6.875 Y3.061 E3.41885
G1 X6.715 Y3.409 E3.42983
G1 X11.518 Y8.213 E3.62428
G1 X11.518 Y8.721 E3.63884
G1 X6.533 Y3.736 E3.84065
G1 X6.344 Y4.055 E3.85128
G1 X11.518 Y9.230 E4.06076
G1 X11.518 Y9.738 E4.07532
G1 X6.137 Y4.357 E4.29317
G1 X5.921 Y4.649 E4.30358
G1 X11.518 Y10.247 E4.53018
G1 X11.518 Y10.755 E4.54474
G1 X5.690 Y4.927 E4.78068
G1 X5.448 Y5.194 E4.79098
G1 X11.518 Y11.264 E5.03672
G1 X11.518 Y11.518 E5.04400
G1 X11.264 Y11.518 E5.05128
G1 X5.194 Y5.448 E5.29701
G1 X4.927 Y5.690 E5.30731
G1 X10.755 Y11.518 E5.54325
G1 X10.247 Y11.518 E5.55781
G1 X4.649 Y5.921 E5.78441
G1 X4.357 Y6.137 E5.79482
G1 X9.738 Y11.518 E6.01267
G1 X9.230 Y11.518 E6.02723
G1 X4.055 Y6.344 E6.23671
G1 X3.736 Y6.533 E6.24733
G1 X8.721 Y11.518 E6.44915
G1 X8.212 Y11.518 E6.46371
G1 X3.409 Y6.715 E6.65816
G1 X3.061 Y6.875 E6.66914
G1 X7.704 Y11.518 E6.85712
G1 X7.195 Y11.518 E6.87168
G1 X2.707 Y7.029 E7.05339
G1 X2.326 Y7.157 E7.06489
G1 X6.687 Y11.518 E7.24144
G1 X6.178 Y11.518 E7.25600
G1 X1.936 Y7.275 E7.42776
G1 X1.524 Y7.372 E7.43987
G1 X5.670 Y11.518 E7.60771
G1 X5.161 Y11.518 E7.62227
G1 X1.089 Y7.446 E7.78712
G1 X0.638 Y7.504 E7.80013
G1 X4.653 Y11.518 E7.96264
G1 X4.144 Y11.518 E7.97720
G1 X0.152 Y7.526 E8.13881
G1 X-0.366 Y7.516 E8.15365
G1 X3.636 Y11.518 E8.31566
G1 X3.127 Y11.518 E8.33022
G1 X-0.922 Y7.469 E8.49412
G1 X-1.529 Y7.371 E8.51172
G1 X2.618 Y11.518 E8.67961
G1 X2.110 Y11.518 E8.69417
G1 X-2.213 Y7.195 E8.86919
G1 X-2.723 Y7.024 E8.88457
G1 X-3.027 Y6.889 E8.89410
G1 X1.601 Y11.518 E9.08149
G1 X1.093 Y11.518 E9.09604
G1 X-11.518 Y-1.093 E9.60658
G1 X-11.518 Y-1.601 E9.62113
G1 X-6.889 Y3.027 E9.80852
G1 X-7.025 Y2.719 E9.81817
G1 X-7.195 Y2.214 E9.83343
G1 X-11.518 Y-2.110 E10.00846
G1 X-11.518 Y-2.618 E10.02302
G1 X-7.371 Y1.529 E10.19091
G1 X-7.469 Y0.922 E10.20852
G1 X-11.518 Y-3.127 E10.37242
G1 X-11.518 Y-3.636 E10.38698
G1 X-7.516 Y0.366 E10.54899
G1 X-7.526 Y-0.152 E10.56384
G1 X-11.518 Y-4.144 E10.72544
G1 X-11.518 Y-4.653 E10.74000
G1 X-7.504 Y-0.638 E10.90251
G1 X-7.446 Y-1.089 E10.91552
G1 X-11.518 Y-5.161 E11.08037
G1 X-11.518 Y-5.670 E11.09493
G1 X-7.372 Y-1.524 E11.26277
G1 X-7.275 Y-1.936 E11.27488
G1 X-11.518 Y-6.178 E11.44664
G1 X-11.518 Y-6.687 E11.46120
G1 X-7.157 Y-2.326 E11.63775
G1 X-7.029 Y-2.707 E11.64925
G1 X-11.518 Y-7.195 E11.83097
G1 X-11.518 Y-7.704 E11.84553
G1 X-6.875 Y-3.061 E12.03351
G1 X-6.715 Y-3.409 E12.04449
G1 X-11.518 Y-8.212 E12.23894
G1 X-11.518 Y-8.721 E12.25350
G1 X-6.533 Y-3.736 E12.45532
G1 X-6.344 Y-4.055 E12.46594
G1 X-11.518 Y-9.230 E12.67542
G1 X-11.518 Y-9.738 E12.68998
G1 X-6.137 Y-4.357 E12.90783
G1 X-5.921 Y-4.649 E12.91824
G1 X-11.518 Y-10.247 E13.14484
G1 X-11.518 Y-10.755 E13.15940
G1 X-5.690 Y-4.927 E13.39534
G1 X-5.448 Y-5.194 E13.40564
G1 X-11.518 Y-11.264 E13.65137
G1 X-11.518 Y-11.518 E13.65865
G1 X-11.264 Y-11.518 E13.66593
G1 X-5.194 Y-5.448 E13.91166
G1 X-4.927 Y-5.690 E13.92197
G1 X-10.755 Y-11.518 E14.15791
G1 X-10.247 Y-11.518 E14.17247
G1 X-4.649 Y-5.921 E14.39907
G1 X-4.357 Y-6.137 E14.40948
G1 X-9.738 Y-11.518 E14.62733
G1 X-9.230 Y-11.518 E14.64189
G1 X-4.055 Y-6.344 E14.85137
G1 X-3.736 Y-6.533 E14.86199
G1 X-8.721 Y-11.518 E15.06381
G1 X-8.213 Y-11.518 E15.07837
G1 X-3.409 Y-6.715 E15.27282
G1 X-3.061 Y-6.875 E15.28380
G1 X-7.704 Y-11.518 E15.47178
G1 X-7.195 Y-11.518 E15.48634
G1 X-2.707 Y-7.029 E15.66806
G1 X-2.326 Y-7.157 E15.67956
G1 X-6.687 Y-11.518 E15.85611
G1 X-6.178 Y-11.518 E15.87067
G1 X-1.936 Y-7.275 E16.04243
G1 X-1.524 Y-7.372 E16.05454
G1 X-5.670 Y-11.518 E16.22238
G1 X-5.161 Y-11.518 E16.23694
G1 X-1.089 Y-7.446 E16.40179
G1 X-0.638 Y-7.504 E16.41480
G1 X-4.653 Y-11.518 E16.57731
G1 X-4.144 Y-11.518 E16.59187
G1 X-0.152 Y-7.526 E16.75347
G1 X0.366 Y-7.516 E16.76832
G1 X-3.636 Y-11.518 E16.93033
G1 X-3.127 Y-11.518 E16.94488
G1 X0.922 Y-7.469 E17.10879
G1 X1.529 Y-7.371 E17.12639
G1 X-2.619 Y-11.518 E17.29428
G1 X-2.110 Y-11.518 E17.30884
G1 X2.213 Y-7.195 E17.48386
G1 X2.720 Y-7.025 E17.49917
G1 X3.027 Y-6.889 E17.50877
G1 X-1.601 Y-11.518 E17.69615
G1 X-1.093 Y-11.518 E17.71071
G1 X11.518 Y1.093 E18.22124
G1 X11.518 Y0.584 E18.23580
G1 X-0.584 Y-11.518 E18.72575
G1 X-0.076 Y-11.518 E18.74031
G1 X11.518 Y0.076 E19.20967
G1 X11.518 Y-0.433 E19.22422
G1 X0.433 Y-11.518 E19.67300
G1 X0.941 Y-11.518 E19.68755
G1 X11.518 Y-0.941 E20.11574
G1 X11.518 Y-1.450 E20.13030
G1 X1.450 Y-11.518 E20.53789
G1 X1.958 Y-11.518 E20.55245
G1 X11.518 Y-1.958 E20.93946
G1 X11.518 Y-2.467 E20.95402
G1 X2.467 Y-11.518 E21.32044
G1 X2.975 Y-11.518 E21.33499
G1 X11.518 Y-2.975 E21.68083
G1 X11.518 Y-3.484 E21.69539
G1 X3.484 Y-11.518 E22.02063
G1 X3.993 Y-11.518 E22.03519
G1 X11.518 Y-3.993 E22.33985
G1 X11.518 Y-4.501 E22.35440
G1 X4.501 Y-11.518 E22.63847
G1 X5.010 Y-11.518 E22.65303
G1 X11.518 Y-5.010 E22.91651
G1 X11.518 Y-5.518 E22.93107
G1 X5.518 Y-11.518 E23.17397
G1 X6.027 Y-11.518 E23.18852
G1 X11.518 Y-6.027 E23.41083
G1 X11.518 Y-6.535 E23.42539
G1 X6.535 Y-11.518 E23.62711
G1 X7.044 Y-11.518 E23.64166
G1 X11.518 Y-7.044 E23.82279
G1 X11.518 Y-7.552 E23.83735
G1 X7.552 Y-11.518 E23.99790
G1 X8.061 Y-11.518 E24.01245
G1 X11.518 Y-8.061 E24.15241
G1 X11.518 Y-8.570 E24.16697
G1 X8.570 Y-11.518 E24.28633
G1 X9.078 Y-11.518 E24.30089
G1 X11.518 Y-9.078 E24.39967
G1 X11.518 Y-9.587 E24.41423
