; generated by Slic3r 1.36.2-prusa3d on 2018-01-15 at 17:29:28

; 

; external perimeters extrusion width = 0.45mm
; perimeters extrusion width = 0.45mm
; infill extrusion width = 0.45mm
; solid infill extrusion width = 0.45mm
; top infill extrusion width = 0.40mm
; first layer extrusion width = 0.20mm

M107
; Monoprice Mini Delta
M109 S190.0 ; set extruder temperature
G21 ; set units to millimeters
G90 ; absolute positioning
M82 ; extruder to absolute mode
M107 ; turn off fan
G28 ; home all axes
G29 C-0.8 Z0.3
; Other leveling setups, not tested
;G29 P2; automatic bed levelling, 3 corners and center, double tap
;G29 P3 Z0.5 V4; automatic bed levelling with detailed report, 3x3 matrix, double tap
G1 Z15.0 F4800 ;move the platform down 15mm
G92 E0 ;zero the extruded length
G1 F200 E3  ;extrude 3mm of feed stock
G92 E0  ;zero the extruded length again
G1 F4800
;Put printing message on LCD screen
M117 Printing...
; Filament gcode

G21 ; set units to millimeters
G90 ; use absolute coordinates
M82 ; use absolute distances for extrusion
G92 E0
G1 Z0.200 F7800.000
G1 E-1.00000 F2400.00000
G92 E0
G1 X-33.011 Y-11.844 F7800.000
G1 E1.00000 F1500.00000
G1 F1200
G1 X-32.596 Y-13.000 E1.03489
G1 X-31.837 Y-14.769 E1.08960
G1 X-30.902 Y-16.636 E1.14893
G1 X-29.858 Y-18.444 E1.20826
G1 X-28.797 Y-20.058 E1.26316
G1 X-27.328 Y-22.018 E1.33274
G1 X-26.073 Y-23.494 E1.38782
G1 X-24.630 Y-25.003 E1.44715
G1 X-23.100 Y-26.424 E1.50647
G1 X-21.600 Y-27.661 E1.56173
G1 X-19.624 Y-29.097 E1.63114
G1 X-17.989 Y-30.138 E1.68622
G1 X-16.165 Y-31.154 E1.74554
G1 X-14.285 Y-32.061 E1.80487
G1 X-12.504 Y-32.794 E1.85959
G1 X-10.175 Y-33.591 E1.92953
G1 X-8.306 Y-34.103 E1.98461
G1 X-6.276 Y-34.535 E2.04358
G1 X-3.995 Y-34.871 E2.10911
G1 X-2.077 Y-35.040 E2.16382
G1 X0.016 Y-35.102 E2.22333
G1 X2.097 Y-35.040 E2.28248
G1 X4.027 Y-34.869 E2.33755
G1 X6.449 Y-34.504 E2.40714
G1 X8.338 Y-34.099 E2.46204
G1 X10.350 Y-33.543 E2.52137
G1 X12.326 Y-32.869 E2.58069
G1 X14.109 Y-32.142 E2.63542
G1 X16.327 Y-31.075 E2.70535
G1 X18.018 Y-30.128 E2.76043
G1 X19.767 Y-29.011 E2.81940
G1 X21.628 Y-27.649 E2.88493
G1 X23.113 Y-26.424 E2.93965
G1 X24.648 Y-24.999 E2.99915
G1 X26.086 Y-23.496 E3.05826
G1 X27.342 Y-22.018 E3.11338
G1 X28.810 Y-20.059 E3.18296
G1 X29.875 Y-18.439 E3.23804
G1 X30.919 Y-16.631 E3.29737
G1 X31.850 Y-14.770 E3.35652
G1 X32.618 Y-12.983 E3.41177
G1 X33.441 Y-10.684 E3.48118
G1 X33.982 Y-8.822 E3.53626
G1 X34.448 Y-6.781 E3.59576
G1 X34.789 Y-4.727 E3.65491
G1 X34.996 Y-2.794 E3.71017
G1 X35.105 Y-0.342 E3.77993
G1 X35.073 Y1.584 E3.83465
G1 X34.917 Y3.666 E3.89398
G1 X34.637 Y5.735 E3.95330
G1 X34.266 Y7.637 E4.00838
G1 X33.650 Y10.007 E4.07796
G1 X33.048 Y11.849 E4.13304
G1 X32.285 Y13.793 E4.19237
G1 X31.408 Y15.687 E4.25170
G1 X30.490 Y17.401 E4.30695
G1 X29.206 Y19.479 E4.37636
G1 X28.088 Y21.062 E4.43144
G1 X26.786 Y22.694 E4.49076
G1 X25.389 Y24.246 E4.55009
G1 X24.015 Y25.604 E4.60499
G1 X22.167 Y27.220 E4.67475
G1 X20.632 Y28.403 E4.72983
G1 X18.907 Y29.579 E4.78916
G1 X17.115 Y30.651 E4.84848
G1 X15.391 Y31.549 E4.90374
G1 X13.165 Y32.540 E4.97297
G1 X11.344 Y33.221 E5.02823
G1 X9.361 Y33.833 E5.08720
G1 X7.322 Y34.331 E5.14684
G1 X5.420 Y34.680 E5.20178
G1 X2.989 Y34.973 E5.27136
G1 X1.054 Y35.086 E5.32644
G1 X-0.940 Y35.088 E5.38311
G1 X-3.322 Y34.941 E5.45093
G1 X-5.240 Y34.707 E5.50583
G1 X-7.300 Y34.333 E5.56533
G1 X-9.322 Y33.839 E5.62448
G1 X-11.175 Y33.271 E5.67956
G1 X-13.468 Y32.410 E5.74915
G1 X-15.237 Y31.619 E5.80423
G1 X-17.090 Y30.657 E5.86355
G1 X-18.877 Y29.590 E5.92270
G1 X-20.480 Y28.500 E5.97778
G1 X-22.417 Y27.003 E6.04736
G1 X-23.875 Y25.725 E6.10244
G1 X-25.358 Y24.264 E6.16159
G1 X-26.760 Y22.709 E6.22109
G1 X-27.963 Y21.205 E6.27582
G1 X-29.297 Y19.325 E6.34134
G1 X-30.387 Y17.559 E6.40031
G1 X-31.309 Y15.854 E6.45539
G1 X-32.342 Y13.620 E6.52534
G1 X-33.043 Y11.826 E6.58005
G1 X-33.687 Y9.841 E6.63937
G1 X-34.211 Y7.826 E6.69852
G1 X-34.589 Y5.925 E6.75360
G1 X-34.918 Y3.499 E6.82319
G1 X-35.060 Y1.566 E6.87827
G1 X-35.091 Y-0.516 E6.93741
G1 X-34.998 Y-2.607 E6.99692
G1 X-34.800 Y-4.523 E7.05164
G1 X-34.430 Y-6.799 E7.11716
G1 X-33.971 Y-8.810 E7.17578
G1 X-33.428 Y-10.682 E7.23118
G1 X-33.031 Y-11.788 E7.26456
G1 E6.26456 F2400.00000
G92 E0
G1 X-20.413 Y10.770 F7800.000
G1 E1.00000 F1500.00000
G1 F1200
G1 X-19.764 Y10.316 E1.02250
G1 X-19.047 Y9.981 E1.04500
G1 X-18.282 Y9.776 E1.06750
G1 X-17.512 Y9.709 E1.08948
G1 X-16.706 Y9.776 E1.11244
G1 X-15.939 Y9.981 E1.13500
G1 X-15.222 Y10.316 E1.15750
G1 X-14.573 Y10.770 E1.18001
G1 X-14.013 Y11.330 E1.20251
G1 X-13.559 Y11.979 E1.22501
G1 X-13.232 Y12.679 E1.24698
G1 X-13.020 Y13.459 E1.26995
G1 X-12.950 Y14.250 E1.29251
G1 X-13.019 Y15.039 E1.31501
G1 X-13.224 Y15.804 E1.33751
G1 X-13.559 Y16.521 E1.36001
G1 X-14.013 Y17.170 E1.38251
G1 X-14.573 Y17.730 E1.40501
G1 X-15.222 Y18.184 E1.42751
G1 X-15.939 Y18.519 E1.45002
G1 X-16.704 Y18.724 E1.47252
G1 X-17.493 Y18.793 E1.49502
G1 X-18.282 Y18.724 E1.51752
G1 X-19.047 Y18.519 E1.54002
G1 X-19.764 Y18.184 E1.56252
G1 X-20.413 Y17.730 E1.58502
G1 X-20.960 Y17.183 E1.60700
G1 X-21.426 Y16.523 E1.62996
G1 X-21.762 Y15.804 E1.65252
G1 X-21.967 Y15.039 E1.67502
G1 X-22.036 Y14.250 E1.69753
G1 X-21.967 Y13.461 E1.72003
G1 X-21.762 Y12.696 E1.74253
G1 X-21.427 Y11.979 E1.76503
G1 X-20.973 Y11.330 E1.78753
G1 X-20.455 Y10.813 E1.80833
G1 X-20.183 Y11.045 F7800.000
G1 F1200
G1 X-19.585 Y10.626 E1.82905
G1 X-18.924 Y10.318 E1.84978
G1 X-18.220 Y10.129 E1.87051
G1 X-17.511 Y10.067 E1.89072
G1 X-16.768 Y10.129 E1.91192
G1 X-16.062 Y10.318 E1.93268
G1 X-15.401 Y10.626 E1.95340
G1 X-14.803 Y11.045 E1.97413
G1 X-14.288 Y11.560 E1.99485
G1 X-13.869 Y12.158 E2.01558
G1 X-13.569 Y12.803 E2.03580
G1 X-13.373 Y13.522 E2.05699
G1 X-13.309 Y14.250 E2.07775
G1 X-13.372 Y14.977 E2.09848
G1 X-13.561 Y15.681 E2.11920
G1 X-13.869 Y16.342 E2.13993
G1 X-14.288 Y16.940 E2.16066
G1 X-14.803 Y17.455 E2.18138
G1 X-15.401 Y17.874 E2.20211
G1 X-16.062 Y18.182 E2.22283
G1 X-16.766 Y18.371 E2.24356
G1 X-17.493 Y18.434 E2.26429
G1 X-18.220 Y18.371 E2.28501
G1 X-18.924 Y18.182 E2.30574
G1 X-19.585 Y17.874 E2.32646
G1 X-20.183 Y17.455 E2.34719
G1 X-20.686 Y16.952 E2.36741
G1 X-21.116 Y16.343 E2.38860
G1 X-21.425 Y15.681 E2.40936
G1 X-21.614 Y14.977 E2.43009
G1 X-21.677 Y14.250 E2.45081
G1 X-21.614 Y13.523 E2.47154
G1 X-21.425 Y12.819 E2.49226
G1 X-21.117 Y12.158 E2.51299
G1 X-20.698 Y11.560 E2.53372
G1 X-20.225 Y11.087 E2.55274
G1 X-19.952 Y11.319 F7800.000
G1 F1200
G1 X-19.406 Y10.937 E2.57169
G1 X-18.802 Y10.655 E2.59064
G1 X-18.157 Y10.482 E2.60959
G1 X-17.510 Y10.426 E2.62805
G1 X-16.829 Y10.482 E2.64747
G1 X-16.185 Y10.655 E2.66643
G1 X-15.580 Y10.937 E2.68538
G1 X-15.034 Y11.319 E2.70433
G1 X-14.562 Y11.791 E2.72328
G1 X-14.180 Y12.337 E2.74223
G1 X-13.905 Y12.926 E2.76070
G1 X-13.725 Y13.585 E2.78012
G1 X-13.667 Y14.250 E2.79908
G1 X-13.725 Y14.914 E2.81803
G1 X-13.898 Y15.558 E2.83698
G1 X-14.180 Y16.163 E2.85593
G1 X-14.562 Y16.709 E2.87488
G1 X-15.034 Y17.181 E2.89383
G1 X-15.580 Y17.563 E2.91278
G1 X-16.185 Y17.845 E2.93173
G1 X-16.829 Y18.018 E2.95068
G1 X-17.493 Y18.076 E2.96963
G1 X-18.157 Y18.018 E2.98858
G1 X-18.802 Y17.845 E3.00753
G1 X-19.406 Y17.563 E3.02648
G1 X-19.952 Y17.181 E3.04544
G1 X-20.412 Y16.721 E3.06390
G1 X-20.806 Y16.163 E3.08332
G1 X-21.088 Y15.558 E3.10228
G1 X-21.261 Y14.914 E3.12123
G1 X-21.319 Y14.250 E3.14018
G1 X-21.261 Y13.586 E3.15913
G1 X-21.088 Y12.942 E3.17808
G1 X-20.806 Y12.337 E3.19703
G1 X-20.424 Y11.791 E3.21598
G1 X-19.995 Y11.362 E3.23323
G1 X-20.022 Y10.925 F7800.000
G1 E2.23323 F2400.00000
G92 E0
G1 X-22.666 Y7.566 F7800.000
G1 X-21.495 Y4.712 F7800.000
G1 X-19.531 Y1.662 F7800.000
G1 X-17.005 Y4.044 F7800.000
G1 X-15.603 Y5.638 F7800.000
G1 X-14.058 Y7.839 F7800.000
G1 X-12.960 Y9.947 F7800.000
G1 X-11.254 Y9.711 F7800.000
G1 E1.00000 F1500.00000
G1 F1200
G1 X-11.321 Y9.204 E1.01454
G1 X-11.321 Y-9.204 E1.53764
G1 X-11.254 Y-9.711 E1.55218
G1 X-11.035 Y-10.240 E1.56844
G1 X-10.687 Y-10.694 E1.58470
G1 X-10.233 Y-11.042 E1.60096
G1 X-9.704 Y-11.261 E1.61723
G1 X-9.197 Y-11.328 E1.63177
G1 X9.211 Y-11.328 E2.15486
G1 X9.718 Y-11.261 E2.16941
G1 X10.247 Y-11.042 E2.18567
G1 X10.701 Y-10.694 E2.20193
G1 X11.049 Y-10.240 E2.21819
G1 X11.268 Y-9.711 E2.23445
G1 X11.335 Y-9.204 E2.24899
G1 X11.335 Y9.204 E2.77209
G1 X11.268 Y9.711 E2.78663
G1 X11.049 Y10.240 E2.80289
G1 X10.701 Y10.694 E2.81915
G1 X10.247 Y11.042 E2.83541
G1 X9.718 Y11.261 E2.85168
G1 X9.211 Y11.328 E2.86622
G1 X-9.197 Y11.328 E3.38931
G1 X-9.704 Y11.261 E3.40386
G1 X-10.233 Y11.042 E3.42012
G1 X-10.687 Y10.694 E3.43638
G1 X-11.035 Y10.240 E3.45264
G1 X-11.231 Y9.767 E3.46720
G1 X-10.907 Y9.618 F7800.000
G1 F1200
G1 X-10.964 Y9.181 E3.47974
G1 X-10.964 Y-9.181 E4.00150
G1 X-10.907 Y-9.618 E4.01404
G1 X-10.724 Y-10.060 E4.02763
G1 X-10.432 Y-10.439 E4.04122
G1 X-10.053 Y-10.730 E4.05481
G1 X-9.611 Y-10.913 E4.06840
G1 X-9.174 Y-10.971 E4.08095
G1 X9.187 Y-10.971 E4.60271
G1 X9.625 Y-10.913 E4.61525
G1 X10.067 Y-10.730 E4.62884
G1 X10.446 Y-10.439 E4.64243
G1 X10.737 Y-10.060 E4.65602
G1 X10.920 Y-9.618 E4.66961
G1 X10.978 Y-9.181 E4.68215
G1 X10.978 Y9.181 E5.20391
G1 X10.920 Y9.618 E5.21646
G1 X10.737 Y10.060 E5.23005
G1 X10.446 Y10.439 E5.24364
G1 X10.067 Y10.730 E5.25722
G1 X9.625 Y10.913 E5.27081
G1 X9.187 Y10.971 E5.28336
G1 X-9.174 Y10.971 E5.80512
G1 X-9.611 Y10.913 E5.81766
G1 X-10.053 Y10.730 E5.83125
G1 X-10.432 Y10.439 E5.84484
G1 X-10.724 Y10.060 E5.85843
G1 X-10.884 Y9.674 E5.87032
G1 X-10.559 Y9.525 F7800.000
G1 F1200
G1 X-10.607 Y9.157 E5.88086
G1 X-10.607 Y-9.157 E6.40129
G1 X-10.559 Y-9.525 E6.41183
G1 X-10.412 Y-9.880 E6.42275
G1 X-10.178 Y-10.185 E6.43367
G1 X-9.873 Y-10.419 E6.44458
G1 X-9.518 Y-10.566 E6.45550
G1 X-9.150 Y-10.614 E6.46604
G1 X9.164 Y-10.614 E6.98648
G1 X9.532 Y-10.566 E6.99702
G1 X9.887 Y-10.419 E7.00794
G1 X10.192 Y-10.185 E7.01885
G1 X10.426 Y-9.880 E7.02977
G1 X10.573 Y-9.525 E7.04069
G1 X10.621 Y-9.157 E7.05123
G1 X10.621 Y9.157 E7.57166
G1 X10.573 Y9.525 E7.58221
G1 X10.426 Y9.880 E7.59312
G1 X10.192 Y10.185 E7.60404
G1 X9.887 Y10.419 E7.61496
G1 X9.532 Y10.566 E7.62588
G1 X9.164 Y10.614 E7.63642
G1 X-9.150 Y10.614 E8.15685
G1 X-9.518 Y10.566 E8.16739
G1 X-9.873 Y10.419 E8.17831
G1 X-10.178 Y10.185 E8.18923
G1 X-10.412 Y9.880 E8.20015
G1 X-10.536 Y9.580 E8.20936
G1 X-10.917 Y9.429 F7800.000
G1 E7.20936 F2400.00000
G92 E0
G1 X-15.939 Y-9.981 F7800.000
G1 E1.00000 F1500.00000
G1 F1200
G1 X-16.704 Y-9.776 E1.02250
G1 X-17.493 Y-9.707 E1.04500
G1 X-18.282 Y-9.776 E1.06750
G1 X-19.047 Y-9.981 E1.09001
G1 X-19.764 Y-10.316 E1.11251
G1 X-20.413 Y-10.770 E1.13501
G1 X-20.960 Y-11.317 E1.15698
G1 X-21.426 Y-11.977 E1.17995
G1 X-21.762 Y-12.696 E1.20251
G1 X-21.967 Y-13.461 E1.22501
G1 X-22.036 Y-14.250 E1.24751
G1 X-21.967 Y-15.039 E1.27001
G1 X-21.762 Y-15.804 E1.29251
G1 X-21.427 Y-16.521 E1.31501
G1 X-20.973 Y-17.170 E1.33752
G1 X-20.413 Y-17.730 E1.36002
G1 X-19.764 Y-18.184 E1.38252
G1 X-19.047 Y-18.519 E1.40502
G1 X-18.282 Y-18.724 E1.42752
G1 X-17.512 Y-18.791 E1.44949
G1 X-16.706 Y-18.724 E1.47246
G1 X-15.939 Y-18.519 E1.49502
G1 X-15.222 Y-18.184 E1.51752
G1 X-14.573 Y-17.730 E1.54002
G1 X-14.013 Y-17.170 E1.56252
G1 X-13.559 Y-16.521 E1.58502
G1 X-13.224 Y-15.804 E1.60753
G1 X-13.019 Y-15.039 E1.63003
G1 X-12.950 Y-14.250 E1.65253
G1 X-13.019 Y-13.461 E1.67503
G1 X-13.224 Y-12.696 E1.69753
G1 X-13.559 Y-11.979 E1.72003
G1 X-14.013 Y-11.330 E1.74254
G1 X-14.573 Y-10.770 E1.76504
G1 X-15.222 Y-10.316 E1.78754
G1 X-15.885 Y-10.007 E1.80833
G1 X-16.062 Y-10.318 F7800.000
G1 F1200
G1 X-16.766 Y-10.129 E1.82906
G1 X-17.493 Y-10.066 E1.84979
G1 X-18.220 Y-10.129 E1.87051
G1 X-18.924 Y-10.318 E1.89124
G1 X-19.585 Y-10.626 E1.91196
G1 X-20.183 Y-11.045 E1.93269
G1 X-20.686 Y-11.548 E1.95291
G1 X-21.116 Y-12.157 E1.97410
G1 X-21.425 Y-12.819 E1.99486
G1 X-21.614 Y-13.523 E2.01559
G1 X-21.677 Y-14.250 E2.03631
G1 X-21.614 Y-14.977 E2.05704
G1 X-21.425 Y-15.681 E2.07777
G1 X-21.117 Y-16.342 E2.09849
G1 X-20.698 Y-16.940 E2.11922
G1 X-20.183 Y-17.455 E2.13994
G1 X-19.585 Y-17.874 E2.16067
G1 X-18.924 Y-18.182 E2.18140
G1 X-18.220 Y-18.371 E2.20212
G1 X-17.511 Y-18.433 E2.22234
G1 X-16.768 Y-18.371 E2.24353
G1 X-16.062 Y-18.182 E2.26429
G1 X-15.401 Y-17.874 E2.28502
G1 X-14.803 Y-17.455 E2.30574
G1 X-14.288 Y-16.940 E2.32647
G1 X-13.869 Y-16.342 E2.34720
G1 X-13.561 Y-15.681 E2.36792
G1 X-13.372 Y-14.977 E2.38865
G1 X-13.309 Y-14.250 E2.40937
G1 X-13.372 Y-13.523 E2.43010
G1 X-13.561 Y-12.819 E2.45083
G1 X-13.869 Y-12.158 E2.47155
G1 X-14.288 Y-11.560 E2.49228
G1 X-14.803 Y-11.045 E2.51300
G1 X-15.401 Y-10.626 E2.53373
G1 X-16.008 Y-10.343 E2.55275
G1 X-16.185 Y-10.655 F7800.000
G1 F1200
G1 X-16.829 Y-10.482 E2.57170
G1 X-17.493 Y-10.424 E2.59065
G1 X-18.157 Y-10.482 E2.60960
G1 X-18.802 Y-10.655 E2.62855
G1 X-19.406 Y-10.937 E2.64750
G1 X-19.952 Y-11.319 E2.66645
G1 X-20.412 Y-11.779 E2.68492
G1 X-20.806 Y-12.337 E2.70433
G1 X-21.088 Y-12.942 E2.72330
G1 X-21.261 Y-13.586 E2.74225
G1 X-21.319 Y-14.250 E2.76120
G1 X-21.261 Y-14.914 E2.78015
G1 X-21.088 Y-15.558 E2.79910
G1 X-20.806 Y-16.163 E2.81805
G1 X-20.424 Y-16.709 E2.83700
G1 X-19.952 Y-17.181 E2.85595
G1 X-19.406 Y-17.563 E2.87490
G1 X-18.802 Y-17.845 E2.89385
G1 X-18.157 Y-18.018 E2.91280
G1 X-17.510 Y-18.074 E2.93127
G1 X-16.829 Y-18.018 E2.95068
G1 X-16.185 Y-17.845 E2.96965
G1 X-15.580 Y-17.563 E2.98860
G1 X-15.034 Y-17.181 E3.00755
G1 X-14.562 Y-16.709 E3.02650
G1 X-14.180 Y-16.163 E3.04545
G1 X-13.898 Y-15.558 E3.06440
G1 X-13.725 Y-14.914 E3.08335
G1 X-13.667 Y-14.250 E3.10230
G1 X-13.725 Y-13.586 E3.12125
G1 X-13.898 Y-12.942 E3.14020
G1 X-14.180 Y-12.337 E3.15915
G1 X-14.562 Y-11.791 E3.17810
G1 X-15.034 Y-11.319 E3.19705
G1 X-15.580 Y-10.937 E3.21600
G1 X-16.130 Y-10.680 E3.23325
G1 X-16.254 Y-10.261 F7800.000
G1 E2.23325 F2400.00000
G92 E0
G1 X13.033 Y-13.461 F7800.000
G1 E1.00000 F1500.00000
G1 F1200
G1 X12.964 Y-14.250 E1.02250
G1 X13.033 Y-15.039 E1.04500
G1 X13.238 Y-15.804 E1.06750
G1 X13.573 Y-16.521 E1.09001
G1 X14.027 Y-17.170 E1.11251
G1 X14.587 Y-17.730 E1.13501
G1 X15.236 Y-18.184 E1.15751
G1 X15.953 Y-18.519 E1.18001
G1 X16.718 Y-18.724 E1.20251
G1 X17.488 Y-18.791 E1.22449
G1 X18.294 Y-18.724 E1.24745
G1 X19.061 Y-18.519 E1.27001
G1 X19.778 Y-18.184 E1.29251
G1 X20.427 Y-17.730 E1.31501
G1 X20.987 Y-17.170 E1.33752
G1 X21.441 Y-16.521 E1.36002
G1 X21.768 Y-15.821 E1.38199
G1 X21.980 Y-15.041 E1.40495
G1 X22.050 Y-14.250 E1.42751
G1 X21.981 Y-13.461 E1.45002
G1 X21.776 Y-12.696 E1.47252
G1 X21.441 Y-11.979 E1.49502
G1 X20.987 Y-11.330 E1.51752
G1 X20.427 Y-10.770 E1.54002
G1 X19.778 Y-10.316 E1.56252
G1 X19.061 Y-9.981 E1.58502
G1 X18.296 Y-9.776 E1.60753
G1 X17.507 Y-9.707 E1.63003
G1 X16.718 Y-9.776 E1.65253
G1 X15.953 Y-9.981 E1.67503
G1 X15.253 Y-10.308 E1.69700
G1 X14.588 Y-10.769 E1.71997
G1 X14.027 Y-11.330 E1.74253
G1 X13.573 Y-11.979 E1.76503
G1 X13.238 Y-12.696 E1.78753
G1 X13.049 Y-13.403 E1.80833
G1 X13.386 Y-13.523 F7800.000
G1 F1200
G1 X13.323 Y-14.250 E1.82905
G1 X13.386 Y-14.977 E1.84978
G1 X13.575 Y-15.681 E1.87051
G1 X13.883 Y-16.342 E1.89123
G1 X14.302 Y-16.940 E1.91196
G1 X14.817 Y-17.455 E1.93268
G1 X15.415 Y-17.874 E1.95341
G1 X16.076 Y-18.182 E1.97414
G1 X16.780 Y-18.371 E1.99486
G1 X17.489 Y-18.433 E2.01508
G1 X18.232 Y-18.371 E2.03627
G1 X18.938 Y-18.182 E2.05703
G1 X19.599 Y-17.874 E2.07776
G1 X20.197 Y-17.455 E2.09848
G1 X20.712 Y-16.940 E2.11921
G1 X21.131 Y-16.342 E2.13994
G1 X21.431 Y-15.697 E2.16016
G1 X21.627 Y-14.978 E2.18135
G1 X21.691 Y-14.250 E2.20211
G1 X21.628 Y-13.523 E2.22283
G1 X21.439 Y-12.819 E2.24356
G1 X21.131 Y-12.158 E2.26429
G1 X20.712 Y-11.560 E2.28501
G1 X20.197 Y-11.045 E2.30574
G1 X19.599 Y-10.626 E2.32646
G1 X18.938 Y-10.318 E2.34719
G1 X18.234 Y-10.129 E2.36792
G1 X17.507 Y-10.066 E2.38864
G1 X16.780 Y-10.129 E2.40937
G1 X16.076 Y-10.318 E2.43009
G1 X15.431 Y-10.619 E2.45031
G1 X14.818 Y-11.044 E2.47150
G1 X14.302 Y-11.560 E2.49226
G1 X13.883 Y-12.158 E2.51299
G1 X13.575 Y-12.819 E2.53372
G1 X13.402 Y-13.465 E2.55274
