; generated by Slic3r 1.36.2-prusa3d on 2018-01-14 at 13:46:24

; 

; external perimeters extrusion width = 0.45mm
; perimeters extrusion width = 0.45mm
; infill extrusion width = 0.45mm
; solid infill extrusion width = 0.45mm
; top infill extrusion width = 0.40mm
; first layer extrusion width = 0.20mm

M107
; Monoprice Mini Delta
M109 S190.0 ; set extruder temperature
G21 ; set units to millimeters
G90 ; absolute positioning
M82 ; extruder to absolute mode
M107 ; turn off fan
G28 ; home all axes
G29 C-0.8 Z0.3
; Other leveling setups, not tested
;G29 P2; automatic bed levelling, 3 corners and center, double tap
;G29 P3 Z0.5 V4; automatic bed levelling with detailed report, 3x3 matrix, double tap
G1 Z15.0 F4800 ;move the platform down 15mm
G92 E0 ;zero the extruded length
G1 F200 E3  ;extrude 3mm of feed stock
G92 E0  ;zero the extruded length again
G1 F4800
;Put printing message on LCD screen
M117 Printing...
; Filament gcode

G21 ; set units to millimeters
G90 ; use absolute coordinates
M82 ; use absolute distances for extrusion
G92 E0
G1 Z0.200 F7800.000
G1 E-1.00000 F2400.00000
G92 E0
G1 X8.957 Y37.013 F7800.000
G1 E1.00000 F1500.00000
G1 F1200
G1 X7.669 Y37.325 E1.03767
G1 X5.594 Y37.694 E1.09755
G1 X3.344 Y37.960 E1.16193
G1 X1.082 Y38.091 E1.22633
G1 X-1.024 Y38.092 E1.28617
G1 X-3.663 Y37.928 E1.36129
G1 X-5.763 Y37.668 E1.42142
G1 X-7.986 Y37.261 E1.48564
G1 X-10.172 Y36.724 E1.54961
G1 X-12.170 Y36.109 E1.60901
G1 X-14.627 Y35.186 E1.68360
G1 X-16.554 Y34.324 E1.74360
G1 X-18.566 Y33.278 E1.80803
G1 X-20.517 Y32.112 E1.87263
G1 X-22.263 Y30.925 E1.93263
G1 X-24.342 Y29.317 E2.00732
G1 X-25.934 Y27.920 E2.06750
G1 X-27.545 Y26.333 E2.13174
G1 X-29.066 Y24.644 E2.19635
G1 X-30.388 Y22.990 E2.25653
G1 X-31.904 Y20.835 E2.33139
G1 X-33.011 Y19.037 E2.39139
G1 X-34.085 Y17.040 E2.45581
G1 X-35.040 Y14.978 E2.52042
G1 X-35.810 Y13.025 E2.58006
G1 X-36.626 Y10.513 E2.65510
G1 X-37.155 Y8.463 E2.71528
G1 X-37.591 Y6.251 E2.77935
G1 X-37.897 Y3.992 E2.84413
G1 X-38.058 Y1.893 E2.90395
G1 X-38.103 Y-0.598 E2.97474
G1 X-38.001 Y-2.843 E3.03859
G1 X-37.782 Y-4.951 E3.09882
G1 X-37.351 Y-7.543 E3.17350
G1 X-36.878 Y-9.601 E3.23350
G1 X-36.241 Y-11.777 E3.29793
G1 X-35.477 Y-13.911 E3.36236
G1 X-34.652 Y-15.848 E3.42218
G1 X-33.472 Y-18.210 E3.49722
G1 X-32.410 Y-20.043 E3.55739
G1 X-31.168 Y-21.924 E3.62147
G1 X-29.671 Y-23.908 E3.69209
G1 X-28.311 Y-25.507 E3.75173
G1 X-26.740 Y-27.150 E3.81633
G1 X-25.078 Y-28.692 E3.88076
G1 X-23.444 Y-30.039 E3.94093
G1 X-21.318 Y-31.583 E4.01562
G1 X-19.536 Y-32.718 E4.07562
G1 X-17.556 Y-33.821 E4.14004
G1 X-15.514 Y-34.806 E4.20447
G1 X-13.567 Y-35.607 E4.26429
G1 X-11.069 Y-36.461 E4.33933
G1 X-9.026 Y-37.022 E4.39950
G1 X-6.787 Y-37.498 E4.46456
G1 X-4.326 Y-37.858 E4.53525
G1 X-2.234 Y-38.042 E4.59493
G1 X0.037 Y-38.107 E4.65949
G1 X2.302 Y-38.037 E4.72388
G1 X4.410 Y-37.849 E4.78402
G1 X7.007 Y-37.455 E4.85867
G1 X9.076 Y-37.010 E4.91881
G1 X11.261 Y-36.405 E4.98321
G1 X13.411 Y-35.669 E5.04781
G1 X15.354 Y-34.874 E5.10746
G1 X17.733 Y-33.727 E5.18249
G1 X19.580 Y-32.692 E5.24267
G1 X21.479 Y-31.477 E5.30674
G1 X23.484 Y-30.008 E5.37736
G1 X25.106 Y-28.667 E5.43718
G1 X26.775 Y-27.115 E5.50195
G1 X28.332 Y-25.484 E5.56602
G1 X29.702 Y-23.869 E5.62620
G1 X31.277 Y-21.765 E5.70088
G1 X32.436 Y-20.000 E5.76088
G1 X33.568 Y-18.036 E5.82530
G1 X34.584 Y-16.002 E5.88991
G1 X35.418 Y-14.056 E5.95008
G1 X36.300 Y-11.587 E6.02459
G1 X36.890 Y-9.553 E6.08476
G1 X37.394 Y-7.336 E6.14936
G1 X37.764 Y-5.100 E6.21379
G1 X37.987 Y-2.994 E6.27396
G1 X38.103 Y-0.368 E6.34864
G1 X38.067 Y1.743 E6.40864
G1 X37.896 Y4.004 E6.47307
G1 X37.590 Y6.256 E6.53767
G1 X37.183 Y8.328 E6.59767
G1 X36.521 Y10.871 E6.67235
G1 X35.862 Y12.884 E6.73252
G1 X35.033 Y14.994 E6.79695
G1 X34.079 Y17.051 E6.86137
G1 X33.078 Y18.916 E6.92155
G1 X31.692 Y21.157 E6.99641
G1 X30.473 Y22.881 E7.05640
G1 X29.058 Y24.652 E7.12083
G1 X27.541 Y26.337 E7.18525
G1 X26.043 Y27.816 E7.24507
G1 X24.054 Y29.553 E7.32011
G1 X22.376 Y30.845 E7.38028
G1 X20.503 Y32.121 E7.44471
G1 X18.556 Y33.283 E7.50913
G1 X16.678 Y34.261 E7.56931
G1 X14.282 Y35.327 E7.64381
G1 X12.299 Y36.068 E7.70399
G1 X10.270 Y36.695 E7.76434
G1 X9.015 Y36.999 E7.80101
G1 E6.80101 F2400.00000
G92 E0
G1 X12.287 Y14.250 F7800.000
G1 E1.00000 F1500.00000
G1 F1200
G1 X14.893 Y9.736 E1.14812
G1 X20.106 Y9.736 E1.29625
G1 X22.712 Y14.250 E1.44437
G1 X20.106 Y18.764 E1.59249
G1 X14.893 Y18.764 E1.74061
G1 X12.317 Y14.302 E1.88703
G1 X12.699 Y14.250 F7800.000
G1 F1200
G1 X15.099 Y10.093 E2.02344
G1 X19.900 Y10.093 E2.15984
G1 X22.300 Y14.250 E2.29625
G1 X19.900 Y18.407 E2.43266
G1 X15.099 Y18.407 E2.56906
G1 X12.729 Y14.302 E2.70376
G1 X13.112 Y14.250 F7800.000
G1 F1200
G1 X15.306 Y10.450 E2.82845
G1 X19.694 Y10.450 E2.95314
G1 X21.887 Y14.250 E3.07783
G1 X19.694 Y18.050 E3.20252
G1 X15.306 Y18.050 E3.32721
G1 X13.142 Y14.302 E3.45019
G1 X12.765 Y14.050 F7800.000
G1 E2.45019 F2400.00000
G92 E0
G1 X14.893 Y-9.736 F7800.000
G1 E1.00000 F1500.00000
G1 F1200
G1 X12.287 Y-14.250 E1.14812
G1 X14.893 Y-18.764 E1.29625
G1 X20.106 Y-18.764 E1.44437
G1 X22.712 Y-14.250 E1.59249
G1 X20.106 Y-9.736 E1.74061
G1 X14.953 Y-9.736 E1.88703
G1 X15.099 Y-10.093 F7800.000
G1 F1200
G1 X12.699 Y-14.250 E2.02344
G1 X15.099 Y-18.407 E2.15984
G1 X19.900 Y-18.407 E2.29625
G1 X22.300 Y-14.250 E2.43266
G1 X19.900 Y-10.093 E2.56906
G1 X15.159 Y-10.093 E2.70376
G1 X15.306 Y-10.450 F7800.000
G1 F1200
G1 X13.112 Y-14.250 E2.82845
G1 X15.306 Y-18.050 E2.95314
G1 X19.694 Y-18.050 E3.07783
G1 X21.887 Y-14.250 E3.20252
G1 X19.694 Y-10.450 E3.32721
G1 X15.366 Y-10.450 E3.45019
G1 X14.959 Y-10.250 F7800.000
G1 E2.45019 F2400.00000
G92 E0
G1 X-12.288 Y-14.250 F7800.000
G1 E1.00000 F1500.00000
G1 F1200
G1 X-14.894 Y-9.736 E1.14812
G1 X-20.107 Y-9.736 E1.29625
G1 X-22.713 Y-14.250 E1.44437
G1 X-20.107 Y-18.764 E1.59249
G1 X-14.894 Y-18.764 E1.74061
G1 X-12.318 Y-14.302 E1.88703
G1 X-12.700 Y-14.250 F7800.000
G1 F1200
G1 X-15.100 Y-10.093 E2.02344
G1 X-19.901 Y-10.093 E2.15984
G1 X-22.301 Y-14.250 E2.29625
G1 X-19.901 Y-18.407 E2.43266
G1 X-15.100 Y-18.407 E2.56906
G1 X-12.730 Y-14.302 E2.70376
G1 X-13.113 Y-14.250 F7800.000
G1 F1200
G1 X-15.306 Y-10.450 E2.82845
G1 X-19.694 Y-10.450 E2.95314
G1 X-21.888 Y-14.250 E3.07783
G1 X-19.694 Y-18.050 E3.20252
G1 X-15.306 Y-18.050 E3.32721
G1 X-13.143 Y-14.302 E3.45019
G1 X-12.766 Y-14.050 F7800.000
G1 E2.45019 F2400.00000
G92 E0
G1 X-14.894 Y9.736 F7800.000
G1 E1.00000 F1500.00000
G1 F1200
G1 X-12.288 Y14.250 E1.14812
G1 X-14.894 Y18.764 E1.29625
G1 X-20.107 Y18.764 E1.44437
G1 X-22.713 Y14.250 E1.59249
G1 X-20.107 Y9.736 E1.74061
G1 X-14.954 Y9.736 E1.88703
G1 X-15.100 Y10.093 F7800.000
G1 F1200
G1 X-12.700 Y14.250 E2.02344
G1 X-15.100 Y18.407 E2.15984
G1 X-19.901 Y18.407 E2.29625
G1 X-22.301 Y14.250 E2.43266
G1 X-19.901 Y10.093 E2.56906
G1 X-15.160 Y10.093 E2.70376
G1 X-15.306 Y10.450 F7800.000
G1 F1200
G1 X-13.113 Y14.250 E2.82845
G1 X-15.306 Y18.050 E2.95314
G1 X-19.694 Y18.050 E3.07783
G1 X-21.888 Y14.250 E3.20252
G1 X-19.694 Y10.450 E3.32721
G1 X-15.366 Y10.450 E3.45019
G1 X-14.960 Y10.250 F7800.000
G1 E2.45019 F2400.00000
G92 E0
G1 X-14.845 Y9.650 F7800.000
G1 X-14.845 Y0.000 F7800.000
G1 X-21.047 Y0.000 F7800.000
G1 X-22.867 Y2.383 F7800.000
G1 X-23.688 Y3.912 F7800.000
G1 X-24.287 Y5.521 F7800.000
G1 X-24.798 Y8.861 F7800.000
G1 X-25.023 Y12.973 F7800.000
G1 X-24.864 Y14.326 F7800.000
G1 X-24.083 Y15.866 F7800.000
G1 X-25.678 Y16.917 F7800.000
G1 X-25.360 Y17.518 F7800.000
G1 E1.00000 F1500.00000
G1 F1200
G1 X-25.755 Y16.956 E1.01952
G1 X-26.723 Y15.386 E1.07194
G1 X-27.595 Y13.761 E1.12435
G1 X-28.369 Y12.086 E1.17678
G1 X-29.030 Y10.396 E1.22836
G1 X-29.608 Y8.613 E1.28162
G1 X-30.070 Y6.827 E1.33403
G1 X-30.425 Y5.017 E1.38645
G1 X-30.670 Y3.189 E1.43887
G1 X-30.805 Y1.378 E1.49046
G1 X-30.832 Y-0.496 E1.54371
G1 X-30.747 Y-2.338 E1.59613
G1 X-30.556 Y-4.143 E1.64771
G1 X-30.248 Y-5.992 E1.70097
G1 X-29.836 Y-7.790 E1.75338
G1 X-29.317 Y-9.560 E1.80580
G1 X-28.692 Y-11.296 E1.85822
G1 X-27.977 Y-12.964 E1.90981
G1 X-27.139 Y-14.640 E1.96306
G1 X-26.215 Y-16.237 E2.01547
G1 X-25.197 Y-17.775 E2.06789
G1 X-24.089 Y-19.250 E2.12031
G1 X-22.914 Y-20.634 E2.17190
G1 X-21.619 Y-21.988 E2.22516
G1 X-20.265 Y-23.241 E2.27757
G1 X-18.839 Y-24.411 E2.32999
G1 X-17.346 Y-25.494 E2.38241
G1 X-15.815 Y-26.470 E2.43399
G1 X-14.178 Y-27.383 E2.48725
G1 X-12.516 Y-28.181 E2.53966
G1 X-10.808 Y-28.879 E2.59208
G1 X-9.062 Y-29.474 E2.64450
G1 X-7.312 Y-29.955 E2.69609
G1 X-5.477 Y-30.345 E2.74938
G1 X-3.653 Y-30.618 E2.80179
G1 X-1.816 Y-30.782 E2.85421
G1 X0.028 Y-30.835 E2.90663
G1 X1.798 Y-30.781 E2.95696
G1 X3.710 Y-30.611 E3.01149
G1 X5.533 Y-30.335 E3.06388
G1 X7.337 Y-29.950 E3.11630
G1 X9.114 Y-29.458 E3.16872
G1 X10.859 Y-28.860 E3.22112
G1 X12.592 Y-28.146 E3.27438
G1 X14.227 Y-27.357 E3.32597
G1 X15.837 Y-26.457 E3.37838
G1 X17.391 Y-25.463 E3.43080
G1 X18.882 Y-24.378 E3.48321
G1 X20.327 Y-23.185 E3.53646
G1 X21.657 Y-21.949 E3.58805
G1 X22.931 Y-20.615 E3.64046
G1 X24.140 Y-19.184 E3.69371
G1 X25.228 Y-17.730 E3.74530
G1 X26.243 Y-16.190 E3.79772
G1 X27.164 Y-14.592 E3.85013
G1 X27.988 Y-12.942 E3.90254
G1 X28.722 Y-11.218 E3.95580
G1 X29.332 Y-9.508 E4.00738
G1 X29.848 Y-7.737 E4.05980
G1 X30.258 Y-5.939 E4.11222
G1 X30.559 Y-4.119 E4.16463
G1 X30.752 Y-2.255 E4.21788
G1 X30.832 Y-0.442 E4.26946
G1 X30.803 Y1.403 E4.32188
G1 X30.661 Y3.271 E4.37513
G1 X30.415 Y5.070 E4.42671
G1 X30.058 Y6.880 E4.47913
G1 X29.593 Y8.664 E4.53155
G1 X29.022 Y10.418 E4.58396
G1 X28.335 Y12.162 E4.63721
G1 X27.570 Y13.808 E4.68880
G1 X26.695 Y15.432 E4.74122
G1 X25.725 Y17.001 E4.79363
G1 X24.662 Y18.508 E4.84604
G1 X23.493 Y19.972 E4.89929
G1 X22.277 Y21.320 E4.95088
G1 X20.962 Y22.614 E5.00330
G1 X19.572 Y23.827 E5.05572
G1 X18.113 Y24.955 E5.10813
G1 X16.563 Y26.009 E5.16138
G1 X15.004 Y26.938 E5.21296
G1 X13.366 Y27.787 E5.26538
G1 X11.681 Y28.537 E5.31780
G1 X9.954 Y29.184 E5.37021
G1 X8.163 Y29.735 E5.42346
G1 X6.422 Y30.159 E5.47436
G1 X4.534 Y30.500 E5.52888
G1 X2.703 Y30.716 E5.58130
G1 X0.935 Y30.821 E5.63162
G1 X-0.984 Y30.819 E5.68614
G1 X-2.824 Y30.705 E5.73854
G1 X-4.655 Y30.482 E5.79096
G1 X-6.470 Y30.149 E5.84339
G1 X-8.190 Y29.727 E5.89371
G1 X-10.005 Y29.167 E5.94768
G1 X-11.731 Y28.517 E6.00009
G1 X-13.388 Y27.777 E6.05167
G1 X-15.051 Y26.913 E6.10493
G1 X-16.633 Y25.965 E6.15734
G1 X-18.156 Y24.924 E6.20976
G1 X-19.614 Y23.793 E6.26218
G1 X-20.980 Y22.598 E6.31377
G1 X-22.314 Y21.282 E6.36702
G1 X-23.547 Y19.910 E6.41944
G1 X-24.677 Y18.489 E6.47102
G1 X-25.325 Y17.567 E6.50305
G1 X-25.652 Y17.724 F7800.000
G1 F1200
G1 X-26.053 Y17.153 E6.52288
G1 X-27.032 Y15.564 E6.57590
G1 X-27.915 Y13.920 E6.62893
G1 X-28.697 Y12.226 E6.68196
G1 X-29.367 Y10.516 E6.73415
G1 X-29.951 Y8.713 E6.78801
G1 X-30.419 Y6.906 E6.84103
G1 X-30.777 Y5.075 E6.89406
G1 X-31.026 Y3.226 E6.94709
G1 X-31.161 Y1.394 E6.99928
G1 X-31.189 Y-0.501 E7.05314
G1 X-31.103 Y-2.365 E7.10617
G1 X-30.910 Y-4.191 E7.15836
G1 X-30.598 Y-6.061 E7.21222
G1 X-30.181 Y-7.880 E7.26524
G1 X-29.656 Y-9.670 E7.31827
G1 X-29.025 Y-11.427 E7.37130
G1 X-28.301 Y-13.115 E7.42349
G1 X-27.453 Y-14.810 E7.47735
G1 X-26.519 Y-16.425 E7.53037
G1 X-25.489 Y-17.981 E7.58340
G1 X-24.368 Y-19.473 E7.63643
G1 X-23.179 Y-20.873 E7.68862
G1 X-21.869 Y-22.243 E7.74248
G1 X-20.500 Y-23.510 E7.79550
G1 X-19.058 Y-24.694 E7.84853
G1 X-17.547 Y-25.790 E7.90156
G1 X-15.998 Y-26.777 E7.95375
G1 X-14.343 Y-27.700 E8.00761
G1 X-12.661 Y-28.508 E8.06063
G1 X-10.934 Y-29.214 E8.11366
G1 X-9.167 Y-29.815 E8.16669
G1 X-7.396 Y-30.302 E8.21888
G1 X-5.541 Y-30.697 E8.27278
G1 X-3.696 Y-30.973 E8.32580
G1 X-1.837 Y-31.139 E8.37883
G1 X0.028 Y-31.193 E8.43185
G1 X1.820 Y-31.137 E8.48278
G1 X3.752 Y-30.966 E8.53792
G1 X5.597 Y-30.686 E8.59093
G1 X7.422 Y-30.297 E8.64396
G1 X9.220 Y-29.799 E8.69698
G1 X10.985 Y-29.194 E8.75000
G1 X12.738 Y-28.472 E8.80386
G1 X14.392 Y-27.674 E8.85605
G1 X16.021 Y-26.764 E8.90907
G1 X17.592 Y-25.758 E8.96210
G1 X19.101 Y-24.660 E9.01512
G1 X20.563 Y-23.454 E9.06898
G1 X21.908 Y-22.204 E9.12117
G1 X23.196 Y-20.854 E9.17419
G1 X24.420 Y-19.406 E9.22805
G1 X25.520 Y-17.936 E9.28024
G1 X26.547 Y-16.378 E9.33327
G1 X27.478 Y-14.761 E9.38629
G1 X28.312 Y-13.092 E9.43931
G1 X29.054 Y-11.348 E9.49317
G1 X29.672 Y-9.618 E9.54536
G1 X30.194 Y-7.827 E9.59838
G1 X30.608 Y-6.007 E9.65141
G1 X30.913 Y-4.167 E9.70443
G1 X31.108 Y-2.281 E9.75829
G1 X31.189 Y-0.447 E9.81048
G1 X31.160 Y1.419 E9.86350
G1 X31.016 Y3.309 E9.91736
G1 X30.768 Y5.129 E9.96955
G1 X30.406 Y6.959 E10.02258
G1 X29.935 Y8.765 E10.07560
G1 X29.358 Y10.539 E10.12862
G1 X28.663 Y12.303 E10.18248
G1 X27.890 Y13.968 E10.23467
G1 X27.005 Y15.611 E10.28770
G1 X26.023 Y17.198 E10.34072
G1 X24.948 Y18.723 E10.39374
G1 X23.765 Y20.203 E10.44760
G1 X22.535 Y21.567 E10.49979
G1 X21.205 Y22.876 E10.55281
G1 X19.799 Y24.103 E10.60584
G1 X18.322 Y25.244 E10.65886
G1 X16.755 Y26.310 E10.71272
G1 X15.178 Y27.250 E10.76491
G1 X13.521 Y28.109 E10.81793
G1 X11.816 Y28.868 E10.87096
G1 X10.069 Y29.522 E10.92398
G1 X8.258 Y30.079 E10.97784
G1 X6.496 Y30.508 E11.02935
G1 X4.587 Y30.853 E11.08448
G1 X2.734 Y31.072 E11.13750
G1 X0.945 Y31.178 E11.18842
G1 X-0.995 Y31.176 E11.24356
G1 X-2.857 Y31.061 E11.29657
G1 X-4.709 Y30.835 E11.34960
G1 X-6.545 Y30.498 E11.40263
G1 X-8.285 Y30.072 E11.45355
G1 X-10.120 Y29.505 E11.50813
G1 X-11.866 Y28.847 E11.56115
G1 X-13.543 Y28.099 E11.61334
G1 X-15.225 Y27.225 E11.66720
G1 X-16.826 Y26.266 E11.72023
G1 X-18.366 Y25.213 E11.77325
G1 X-19.841 Y24.069 E11.82628
G1 X-21.223 Y22.860 E11.87847
G1 X-22.573 Y21.528 E11.93234
G1 X-23.819 Y20.140 E11.98536
G1 X-24.963 Y18.703 E12.03755
G1 X-25.618 Y17.773 E12.06988
G1 X-25.944 Y17.929 F7800.000
G1 F1200
G1 X-26.352 Y17.349 E12.09002
G1 X-27.342 Y15.743 E12.14365
G1 X-28.234 Y14.080 E12.19728
G1 X-29.026 Y12.366 E12.25091
G1 X-29.703 Y10.636 E12.30371
G1 X-30.294 Y8.813 E12.35818
G1 X-30.767 Y6.986 E12.41181
G1 X-31.130 Y5.133 E12.46545
G1 X-31.381 Y3.263 E12.51908
G1 X-31.518 Y1.410 E12.57187
G1 X-31.546 Y-0.507 E12.62635
G1 X-31.459 Y-2.392 E12.67998
G1 X-31.264 Y-4.240 E12.73277
G1 X-30.949 Y-6.131 E12.78725
G1 X-30.527 Y-7.970 E12.84088
G1 X-29.996 Y-9.781 E12.89451
G1 X-29.357 Y-11.557 E12.94815
G1 X-28.626 Y-13.265 E13.00094
G1 X-27.768 Y-14.979 E13.05542
G1 X-26.822 Y-16.613 E13.10905
G1 X-25.781 Y-18.187 E13.16268
G1 X-24.647 Y-19.696 E13.21632
G1 X-23.445 Y-21.112 E13.26911
G1 X-22.120 Y-22.497 E13.32358
G1 X-20.735 Y-23.780 E13.37721
G1 X-19.276 Y-24.977 E13.43085
G1 X-17.748 Y-26.085 E13.48448
G1 X-16.181 Y-27.084 E13.53728
G1 X-14.507 Y-28.017 E13.59175
G1 X-12.806 Y-28.834 E13.64538
G1 X-11.059 Y-29.548 E13.69902
G1 X-9.272 Y-30.157 E13.75265
G1 X-7.481 Y-30.649 E13.80544
G1 X-5.604 Y-31.048 E13.85995
G1 X-3.738 Y-31.328 E13.91359
G1 X-1.858 Y-31.495 E13.96722
G1 X0.029 Y-31.550 E14.02085
G1 X1.841 Y-31.494 E14.07238
G1 X3.795 Y-31.321 E14.12812
G1 X5.661 Y-31.038 E14.18175
G1 X7.507 Y-30.644 E14.23538
G1 X9.325 Y-30.140 E14.28901
G1 X11.111 Y-29.529 E14.34264
G1 X12.883 Y-28.799 E14.39711
G1 X14.556 Y-27.991 E14.44991
G1 X16.204 Y-27.071 E14.50354
G1 X17.794 Y-26.053 E14.55717
G1 X19.320 Y-24.943 E14.61080
G1 X20.798 Y-23.723 E14.66527
G1 X22.159 Y-22.458 E14.71806
G1 X23.462 Y-21.093 E14.77169
G1 X24.699 Y-19.629 E14.82616
G1 X25.812 Y-18.141 E14.87896
G1 X26.851 Y-16.565 E14.93259
G1 X27.793 Y-14.930 E14.98622
G1 X28.636 Y-13.242 E15.03985
G1 X29.387 Y-11.478 E15.09432
G1 X30.012 Y-9.729 E15.14711
G1 X30.540 Y-7.917 E15.20074
G1 X30.959 Y-6.076 E15.25438
G1 X31.267 Y-4.214 E15.30800
G1 X31.464 Y-2.308 E15.36247
G1 X31.546 Y-0.452 E15.41527
G1 X31.517 Y1.435 E15.46890
G1 X31.371 Y3.347 E15.52337
G1 X31.120 Y5.187 E15.57616
G1 X30.754 Y7.039 E15.62979
G1 X30.278 Y8.865 E15.68342
G1 X29.694 Y10.660 E15.73705
G1 X28.992 Y12.443 E15.79152
G1 X28.209 Y14.128 E15.84432
G1 X27.314 Y15.790 E15.89795
G1 X26.321 Y17.395 E15.95158
G1 X25.234 Y18.937 E16.00521
G1 X24.037 Y20.435 E16.05968
G1 X22.793 Y21.814 E16.11247
G1 X21.448 Y23.138 E16.16610
