; G-Code generated by Simplify3D(R) Version 4.0.1
; Jan 28, 2018 at 1:13:08 PM
; Settings Summary
;   processName,MP Mini Delta
;   applyToModels,OneButton_Reset_Boot_Button_v9,OneButton_Reset_Boot_Button_v9(2)
;   profileName,MP Mini Delta (c04z01)
;   profileVersion,2018-01-27 13:48:09
;   baseProfile,Monoprice MP Mini Delta
;   printMaterial,5 Dollar Filament - PLA - All Colors
;   printQuality,0.10
;   printExtruders,
;   extruderName,Primary Extruder
;   extruderToolheadNumber,0
;   extruderDiameter,0.4
;   extruderAutoWidth,0
;   extruderWidth,0.4
;   extrusionMultiplier,1
;   extruderUseRetract,1
;   extruderRetractionDistance,3
;   extruderExtraRestartDistance,0
;   extruderRetractionZLift,0
;   extruderRetractionSpeed,2700
;   extruderUseCoasting,0
;   extruderCoastingDistance,0.2
;   extruderUseWipe,0
;   extruderWipeDistance,5
;   primaryExtruder,0
;   layerHeight,0.1
;   topSolidLayers,8
;   bottomSolidLayers,8
;   perimeterOutlines,2
;   printPerimetersInsideOut,1
;   startPointOption,2
;   startPointOriginX,0
;   startPointOriginY,0
;   sequentialIslands,0
;   spiralVaseMode,0
;   firstLayerHeightPercentage,150
;   firstLayerWidthPercentage,125
;   firstLayerUnderspeed,0.3
;   useRaft,0
;   raftExtruder,0
;   raftTopLayers,3
;   raftBaseLayers,2
;   raftOffset,15
;   raftSeparationDistance,0.2
;   raftTopInfill,100
;   aboveRaftSpeedMultiplier,0.3
;   useSkirt,1
;   skirtExtruder,0
;   skirtLayers,2
;   skirtOutlines,4
;   skirtOffset,2
;   usePrimePillar,0
;   primePillarExtruder,999
;   primePillarWidth,12
;   primePillarLocation,7
;   primePillarSpeedMultiplier,1
;   useOozeShield,0
;   oozeShieldExtruder,999
;   oozeShieldOffset,2
;   oozeShieldOutlines,1
;   oozeShieldSidewallShape,1
;   oozeShieldSidewallAngle,30
;   oozeShieldSpeedMultiplier,1
;   infillExtruder,0
;   internalInfillPattern,Rectilinear
;   externalInfillPattern,Concentric
;   infillPercentage,20
;   outlineOverlapPercentage,30
;   infillExtrusionWidthPercentage,120
;   minInfillLength,4
;   infillLayerInterval,1
;   internalInfillAngles,45,-45
;   overlapInternalInfillAngles,0
;   externalInfillAngles,45,-45
;   generateSupport,0
;   supportExtruder,0
;   supportInfillPercentage,40
;   supportExtraInflation,0
;   supportBaseLayers,0
;   denseSupportExtruder,0
;   denseSupportLayers,0
;   denseSupportInfillPercentage,70
;   supportLayerInterval,1
;   supportHorizontalPartOffset,0.3
;   supportUpperSeparationLayers,1
;   supportLowerSeparationLayers,1
;   supportType,0
;   supportGridSpacing,2
;   maxOverhangAngle,45
;   supportAngles,0
;   temperatureName,Primary Extruder,Heated Bed
;   temperatureNumber,0,0
;   temperatureSetpointCount,3,1
;   temperatureSetpointLayers,1,3,5,1
;   temperatureSetpointTemperatures,215,210,205,60
;   temperatureStabilizeAtStartup,1,1
;   temperatureHeatedBed,0,1
;   temperatureRelayBetweenLayers,0,0
;   temperatureRelayBetweenLoops,0,0
;   fanLayers,1,2,3,4,5,10
;   fanSpeeds,0,60,70,80,90,95
;   blipFanToFullPower,1
;   adjustSpeedForCooling,1
;   minSpeedLayerTime,15
;   minCoolingSpeedSlowdown,20
;   increaseFanForCooling,0
;   minFanLayerTime,45
;   maxCoolingFanSpeed,100
;   increaseFanForBridging,0
;   bridgingFanSpeed,100
;   use5D,1
;   relativeEdistances,0
;   allowEaxisZeroing,1
;   independentExtruderAxes,0
;   includeM10123,0
;   stickySupport,1
;   applyToolheadOffsets,0
;   gcodeXoffset,0
;   gcodeYoffset,0
;   gcodeZoffset,0
;   overrideMachineDefinition,1
;   machineTypeOverride,1
;   strokeXoverride,77.8
;   strokeYoverride,77.8
;   strokeZoverride,120
;   originOffsetXoverride,38.9
;   originOffsetYoverride,38.9
;   originOffsetZoverride,0
;   homeXdirOverride,0
;   homeYdirOverride,0
;   homeZdirOverride,-1
;   flipXoverride,1
;   flipYoverride,-1
;   flipZoverride,1
;   toolheadOffsets,0,0|0,0|0,0|0,0|0,0|0,0
;   overrideFirmwareConfiguration,1
;   firmwareTypeOverride,RepRap (Marlin/Repetier/Sprinter)
;   GPXconfigOverride,r2
;   baudRateOverride,115200
;   overridePrinterModels,1
;   printerModelsOverride,MP_Mini_Delta_Platform.stl
;   startingGcode,G90 ; absolute positioning,M82 ; set extruder to absolute mode,M107; start with the fan off (I don't think this is possible),G28 ; Start from home position,G29 C-0.4 Z0.1 ; probe the bed at 3 points with a 0.3mm overall vertical offset and an additional -0.8mm center offset ,G1 Z15.0 F4800  ; raise the nozzle 15mm,G92 E0 ; reset extrusion distance,G1 F200 E3 ; extrude 3mm of feed stock,G92 E0 ; reset extrusion distance again,G1 F4800
;   layerChangeGcode,
;   retractionGcode,
;   toolChangeGcode,
;   endingGcode,M104 S0 ; nozzle heater off,M140 S0 ; heated bed heater off,G91 ; relative positioning,G1 E-1 F300 ; retract the filament a bit before lifting the nozzle, to release some of the pressure,G1 Z0.5 E-5 X-20 Y-20 F4800 ; move Z up a bit and retract filament even more,G28 X ; Return to home position so the head is out of the way,M84 ; steppers off,G90 ; absolute positioning
;   exportFileFormat,gcode
;   celebration,0
;   celebrationSong,Random Song
;   postProcessing,
;   defaultSpeed,4800
;   outlineUnderspeed,0.35
;   solidInfillUnderspeed,0.6
;   supportUnderspeed,0.8
;   rapidXYspeed,3600
;   rapidZspeed,1002
;   minBridgingArea,50
;   bridgingExtraInflation,0
;   bridgingExtrusionMultiplier,1
;   bridgingSpeedMultiplier,1
;   useFixedBridgingAngle,0
;   fixedBridgingAngle,0
;   applyBridgingToPerimeters,0
;   filamentDiameters,1.75|1.75|1.75|1.75|1.75|1.75
;   filamentPricesPerKg,25|25|25|25|25|25
;   filamentDensities,1.25|1.25|1.25|1.25|1.25|1.25
;   useMinPrintHeight,0
;   minPrintHeight,42
;   useMaxPrintHeight,0
;   maxPrintHeight,0
;   useDiaphragm,0
;   diaphragmLayerInterval,20
;   robustSlicing,1
;   mergeAllIntoSolid,0
;   onlyRetractWhenCrossingOutline,1
;   retractBetweenLayers,1
;   useRetractionMinTravel,0
;   retractionMinTravel,3
;   retractWhileWiping,0
;   onlyWipeOutlines,1
;   avoidCrossingOutline,0
;   maxMovementDetourFactor,3
;   toolChangeRetractionDistance,12
;   toolChangeExtraRestartDistance,-0.5
;   toolChangeRetractionSpeed,600
;   externalThinWallType,0
;   internalThinWallType,2
;   thinWallAllowedOverlapPercentage,10
;   singleExtrusionMinLength,1
;   singleExtrusionMinPrintingWidthPercentage,50
;   singleExtrusionMaxPrintingWidthPercentage,200
;   singleExtrusionEndpointExtension,0.2
;   horizontalSizeCompensation,0
G90
M82
M106 S255
G4 P500
M106 S0
M140 S60
M190 S60
M104 S215 T0
M109 S215 T0
G90 ; absolute positioning
M82 ; set extruder to absolute mode
M107; start with the fan off (I don't think this is possible)
G28 ; Start from home position
G29 C-0.4 Z0.1 ; probe the bed at 3 points with a 0.3mm overall vertical offset and an additional -0.8mm center offset 
G1 Z15.0 F4800  ; raise the nozzle 15mm
G92 E0 ; reset extrusion distance
G1 F200 E3 ; extrude 3mm of feed stock
G92 E0 ; reset extrusion distance again
G1 F4800
G92 E0
G1 E-3.0000 F2700
G1 Z0.150 F1002
; process MP Mini Delta
; layer 1, Z = 0.150
T0
; tool H0.150 W0.500
; skirt
G1 X0.000 Y-2.900 F3600
G1 E0.0000 F810
G92 E0
G1 X0.253 Y-3.248 E0.0134 F960
G1 X0.292 Y-3.297 E0.0154
G1 X0.451 Y-3.480 E0.0229
G1 X0.495 Y-3.525 E0.0249
G1 X0.897 Y-3.909 E0.0422
G1 X0.944 Y-3.951 E0.0442
G1 X1.134 Y-4.102 E0.0518
G1 X1.185 Y-4.139 E0.0537
G1 X1.649 Y-4.445 E0.0711
G1 X1.703 Y-4.478 E0.0730
G1 X1.916 Y-4.593 E0.0806
G1 X1.973 Y-4.620 E0.0825
G1 X2.484 Y-4.838 E0.0999
G1 X2.543 Y-4.860 E0.1018
G1 X2.774 Y-4.935 E0.1094
G1 X2.834 Y-4.952 E0.1114
G1 X3.377 Y-5.076 E0.1287
G1 X3.439 Y-5.087 E0.1307
G1 X3.679 Y-5.120 E0.1382
G1 X3.741 Y-5.125 E0.1402
G1 X4.297 Y-5.150 E0.1575
G1 X4.360 Y-5.150 E0.1595
G1 X4.602 Y-5.139 E0.1670
G1 X4.665 Y-5.134 E0.1690
G1 X5.246 Y-5.055 E0.1873
G1 X5.323 Y-5.040 E0.1897
G1 X5.617 Y-4.966 E0.1992
G1 X5.692 Y-4.943 E0.2016
G1 X6.416 Y-4.671 E0.2258
G1 X6.488 Y-4.639 E0.2282
G1 X6.758 Y-4.502 E0.2377
G1 X6.826 Y-4.462 E0.2401
G1 X7.315 Y-4.139 E0.2584
G1 X7.366 Y-4.102 E0.2604
G1 X7.556 Y-3.951 E0.2679
G1 X7.603 Y-3.909 E0.2699
G1 X8.005 Y-3.525 E0.2872
G1 X8.049 Y-3.480 E0.2892
G1 X8.208 Y-3.297 E0.2967
G1 X8.247 Y-3.248 E0.2987
G1 X8.592 Y-2.773 E0.3170
G1 X8.635 Y-2.707 E0.3194
G1 X8.784 Y-2.444 E0.3289
G1 X8.819 Y-2.373 E0.3313
G1 X9.123 Y-1.662 E0.3554
G1 X9.150 Y-1.589 E0.3579
G1 X9.237 Y-1.298 E0.3674
G1 X9.255 Y-1.222 E0.3698
G1 X9.360 Y-0.645 E0.3881
G1 X9.368 Y-0.582 E0.3901
G1 X9.390 Y-0.341 E0.3976
G1 X9.393 Y-0.278 E0.3996
G1 X9.393 Y0.308 E0.4179
G1 X9.389 Y0.387 E0.4203
G1 X9.355 Y0.688 E0.4298
G1 X9.341 Y0.766 E0.4322
G1 X9.169 Y1.519 E0.4563
G1 X9.148 Y1.595 E0.4588
G1 X9.048 Y1.881 E0.4682
G1 X9.017 Y1.954 E0.4707
G1 X8.763 Y2.482 E0.4890
G1 X8.733 Y2.537 E0.4909
G1 X8.609 Y2.746 E0.4985
G1 X8.574 Y2.798 E0.5004
G1 X8.247 Y3.248 E0.5178
G1 X8.208 Y3.297 E0.5197
G1 X8.049 Y3.480 E0.5273
G1 X8.005 Y3.525 E0.5293
G1 X7.603 Y3.909 E0.5466
G1 X7.556 Y3.951 E0.5486
G1 X7.366 Y4.102 E0.5561
G1 X7.315 Y4.139 E0.5581
G1 X6.851 Y4.445 E0.5754
G1 X6.797 Y4.478 E0.5774
G1 X6.584 Y4.593 E0.5850
G1 X6.527 Y4.620 E0.5869
G1 X6.016 Y4.838 E0.6043
G1 X5.957 Y4.860 E0.6062
G1 X5.726 Y4.935 E0.6138
G1 X5.666 Y4.952 E0.6157
G1 X5.123 Y5.076 E0.6331
G1 X5.061 Y5.087 E0.6350
G1 X4.821 Y5.120 E0.6426
G1 X4.759 Y5.125 E0.6446
G1 X4.203 Y5.150 E0.6619
G1 X4.140 Y5.150 E0.6639
G1 X3.898 Y5.139 E0.6714
G1 X3.835 Y5.134 E0.6734
G1 X3.254 Y5.055 E0.6917
G1 X3.177 Y5.040 E0.6941
G1 X2.883 Y4.966 E0.7036
G1 X2.808 Y4.943 E0.7060
G1 X2.084 Y4.671 E0.7301
G1 X2.012 Y4.639 E0.7326
G1 X1.742 Y4.502 E0.7420
G1 X1.674 Y4.462 E0.7445
G1 X1.185 Y4.139 E0.7628
G1 X1.134 Y4.102 E0.7647
G1 X0.944 Y3.951 E0.7723
G1 X0.897 Y3.909 E0.7743
G1 X0.495 Y3.525 E0.7916
G1 X0.451 Y3.480 E0.7936
G1 X0.292 Y3.297 E0.8011
G1 X0.253 Y3.248 E0.8031
G1 X0.000 Y2.900 E0.8165
G1 X-0.253 Y3.248 E0.8299
G1 X-0.292 Y3.297 E0.8319
G1 X-0.451 Y3.480 E0.8394
G1 X-0.495 Y3.525 E0.8414
G1 X-0.897 Y3.909 E0.8587
G1 X-0.944 Y3.951 E0.8607
G1 X-1.134 Y4.102 E0.8682
G1 X-1.185 Y4.139 E0.8702
G1 X-1.649 Y4.445 E0.8875
G1 X-1.703 Y4.478 E0.8895
G1 X-1.916 Y4.593 E0.8971
G1 X-1.973 Y4.620 E0.8990
G1 X-2.484 Y4.838 E0.9164
G1 X-2.543 Y4.860 E0.9183
G1 X-2.774 Y4.935 E0.9259
G1 X-2.834 Y4.952 E0.9278
G1 X-3.377 Y5.076 E0.9452
G1 X-3.439 Y5.087 E0.9471
G1 X-3.679 Y5.120 E0.9547
G1 X-3.741 Y5.125 E0.9567
G1 X-4.297 Y5.150 E0.9740
G1 X-4.360 Y5.150 E0.9760
G1 X-4.602 Y5.139 E0.9835
G1 X-4.665 Y5.134 E0.9855
G1 X-5.246 Y5.055 E1.0038
G1 X-5.323 Y5.040 E1.0062
G1 X-5.617 Y4.966 E1.0157
G1 X-5.692 Y4.943 E1.0181
G1 X-6.416 Y4.671 E1.0422
G1 X-6.488 Y4.639 E1.0447
G1 X-6.758 Y4.502 E1.0541
G1 X-6.826 Y4.462 E1.0566
G1 X-7.315 Y4.139 E1.0749
G1 X-7.366 Y4.102 E1.0768
G1 X-7.556 Y3.951 E1.0844
G1 X-7.603 Y3.909 E1.0864
G1 X-8.005 Y3.525 E1.1037
G1 X-8.049 Y3.480 E1.1057
G1 X-8.208 Y3.297 E1.1132
G1 X-8.247 Y3.248 E1.1152
G1 X-8.574 Y2.798 E1.1325
G1 X-8.609 Y2.746 E1.1345
G1 X-8.733 Y2.537 E1.1420
G1 X-8.763 Y2.482 E1.1440
G1 X-9.004 Y1.981 E1.1614
G1 X-9.029 Y1.923 E1.1633
G1 X-9.114 Y1.696 E1.1709
G1 X-9.134 Y1.636 E1.1728
G1 X-9.290 Y1.071 E1.1911
G1 X-9.306 Y0.994 E1.1936
G1 X-9.354 Y0.695 E1.2030
G1 X-9.362 Y0.616 E1.2055
G1 X-9.396 Y-0.156 E1.2296
G1 X-9.395 Y-0.234 E1.2320
G1 X-9.375 Y-0.537 E1.2415
G1 X-9.365 Y-0.615 E1.2439
G1 X-9.261 Y-1.192 E1.2622
G1 X-9.247 Y-1.253 E1.2642
G1 X-9.182 Y-1.487 E1.2717
G1 X-9.163 Y-1.547 E1.2737
G1 X-8.967 Y-2.067 E1.2910
G1 X-8.943 Y-2.125 E1.2930
G1 X-8.837 Y-2.344 E1.3006
G1 X-8.808 Y-2.399 E1.3025
G1 X-8.522 Y-2.877 E1.3199
G1 X-8.488 Y-2.929 E1.3218
G1 X-8.345 Y-3.125 E1.3294
G1 X-8.306 Y-3.174 E1.3313
G1 X-7.920 Y-3.616 E1.3496
G1 X-7.865 Y-3.672 E1.3521
G1 X-7.641 Y-3.877 E1.3615
G1 X-7.580 Y-3.926 E1.3640
G1 X-6.955 Y-4.381 E1.3881
G1 X-6.889 Y-4.423 E1.3905
G1 X-6.625 Y-4.573 E1.4000
G1 X-6.555 Y-4.608 E1.4025
G1 X-6.016 Y-4.838 E1.4207
G1 X-5.957 Y-4.860 E1.4227
G1 X-5.726 Y-4.935 E1.4303
G1 X-5.666 Y-4.952 E1.4322
G1 X-5.123 Y-5.076 E1.4496
G1 X-5.061 Y-5.087 E1.4515
G1 X-4.821 Y-5.120 E1.4591
G1 X-4.759 Y-5.125 E1.4610
G1 X-4.203 Y-5.150 E1.4784
G1 X-4.140 Y-5.150 E1.4803
G1 X-3.898 Y-5.139 E1.4879
G1 X-3.835 Y-5.134 E1.4899
G1 X-3.254 Y-5.055 E1.5082
G1 X-3.177 Y-5.040 E1.5106
G1 X-2.883 Y-4.966 E1.5201
G1 X-2.808 Y-4.943 E1.5225
G1 X-2.084 Y-4.671 E1.5466
G1 X-2.012 Y-4.639 E1.5491
G1 X-1.742 Y-4.502 E1.5585
G1 X-1.674 Y-4.462 E1.5610
G1 X-1.185 Y-4.139 E1.5793
G1 X-1.134 Y-4.102 E1.5812
G1 X-0.944 Y-3.951 E1.5888
G1 X-0.897 Y-3.909 E1.5907
G1 X-0.495 Y-3.525 E1.6081
G1 X-0.451 Y-3.480 E1.6100
G1 X-0.292 Y-3.297 E1.6176
G1 X-0.253 Y-3.248 E1.6196
G1 X0.000 Y-2.900 E1.6330
G1 X-0.255 Y-2.570 F3600
G92 E0
G1 X-0.230 Y-2.533 E0.0014 F960
G1 X-0.115 Y-2.340 E0.0084
G1 X-0.094 Y-2.300 E0.0098
G1 X0.000 Y-2.106 E0.0165
G1 X0.094 Y-2.300 E0.0232
G1 X0.115 Y-2.340 E0.0246
G1 X0.230 Y-2.533 E0.0316
G1 X0.255 Y-2.570 E0.0330
G1 X0.571 Y-3.006 E0.0498
G1 X0.599 Y-3.041 E0.0512
G1 X0.747 Y-3.210 E0.0582
G1 X0.778 Y-3.242 E0.0596
G1 X1.167 Y-3.614 E0.0764
G1 X1.201 Y-3.644 E0.0778
G1 X1.376 Y-3.784 E0.0848
G1 X1.412 Y-3.810 E0.0862
G1 X1.862 Y-4.107 E0.1030
G1 X1.900 Y-4.130 E0.1044
G1 X2.098 Y-4.236 E0.1114
G1 X2.138 Y-4.256 E0.1128
G1 X2.633 Y-4.467 E0.1296
G1 X2.675 Y-4.483 E0.1310
G1 X2.889 Y-4.552 E0.1380
G1 X2.932 Y-4.564 E0.1394
G1 X3.457 Y-4.684 E0.1562
G1 X3.501 Y-4.692 E0.1576
G1 X3.724 Y-4.722 E0.1646
G1 X3.768 Y-4.726 E0.1660
G1 X4.306 Y-4.750 E0.1827
G1 X4.351 Y-4.750 E0.1841
G1 X4.575 Y-4.740 E0.1911
G1 X4.620 Y-4.736 E0.1925
G1 X5.181 Y-4.660 E0.2102
G1 X5.236 Y-4.649 E0.2120
G1 X5.509 Y-4.581 E0.2207
G1 X5.562 Y-4.564 E0.2225
G1 X6.265 Y-4.300 E0.2459
G1 X6.316 Y-4.278 E0.2476
G1 X6.566 Y-4.150 E0.2564
G1 X6.615 Y-4.122 E0.2581
G1 X7.088 Y-3.810 E0.2758
G1 X7.124 Y-3.784 E0.2772
G1 X7.299 Y-3.644 E0.2842
G1 X7.333 Y-3.614 E0.2856
G1 X7.722 Y-3.242 E0.3024
G1 X7.753 Y-3.210 E0.3038
G1 X7.901 Y-3.041 E0.3108
G1 X7.929 Y-3.006 E0.3122
G1 X8.262 Y-2.547 E0.3298
G1 X8.292 Y-2.500 E0.3316
G1 X8.431 Y-2.256 E0.3403
G1 X8.456 Y-2.206 E0.3421
G1 X8.751 Y-1.516 E0.3655
G1 X8.770 Y-1.463 E0.3672
G1 X8.851 Y-1.194 E0.3760
G1 X8.864 Y-1.139 E0.3777
G1 X8.965 Y-0.582 E0.3954
G1 X8.971 Y-0.538 E0.3968
G1 X8.991 Y-0.314 E0.4038
G1 X8.993 Y-0.269 E0.4052
G1 X8.993 Y0.297 E0.4229
G1 X8.990 Y0.353 E0.4246
G1 X8.958 Y0.632 E0.4334
G1 X8.949 Y0.688 E0.4351
G1 X8.782 Y1.419 E0.4585
G1 X8.766 Y1.473 E0.4603
G1 X8.674 Y1.738 E0.4690
G1 X8.652 Y1.790 E0.4708
G1 X8.406 Y2.300 E0.4884
G1 X8.385 Y2.340 E0.4898
G1 X8.270 Y2.533 E0.4968
G1 X8.245 Y2.570 E0.4982
G1 X7.929 Y3.006 E0.5150
G1 X7.901 Y3.041 E0.5164
G1 X7.753 Y3.210 E0.5234
G1 X7.722 Y3.242 E0.5248
G1 X7.333 Y3.614 E0.5416
G1 X7.299 Y3.644 E0.5430
G1 X7.124 Y3.784 E0.5500
G1 X7.088 Y3.810 E0.5514
G1 X6.638 Y4.107 E0.5682
G1 X6.600 Y4.130 E0.5696
G1 X6.402 Y4.236 E0.5766
G1 X6.362 Y4.256 E0.5780
G1 X5.867 Y4.467 E0.5948
G1 X5.825 Y4.483 E0.5962
G1 X5.611 Y4.552 E0.6032
G1 X5.568 Y4.564 E0.6046
G1 X5.043 Y4.684 E0.6213
G1 X4.999 Y4.692 E0.6227
G1 X4.776 Y4.722 E0.6298
G1 X4.732 Y4.726 E0.6312
G1 X4.194 Y4.750 E0.6479
G1 X4.149 Y4.750 E0.6493
G1 X3.925 Y4.740 E0.6563
G1 X3.880 Y4.736 E0.6577
G1 X3.319 Y4.660 E0.6754
G1 X3.264 Y4.649 E0.6771
G1 X2.991 Y4.581 E0.6859
G1 X2.938 Y4.564 E0.6876
G1 X2.235 Y4.300 E0.7111
G1 X2.184 Y4.278 E0.7128
G1 X1.934 Y4.150 E0.7216
G1 X1.885 Y4.122 E0.7233
G1 X1.412 Y3.810 E0.7410
G1 X1.376 Y3.784 E0.7424
G1 X1.201 Y3.644 E0.7494
G1 X1.167 Y3.614 E0.7508
G1 X0.778 Y3.242 E0.7676
G1 X0.747 Y3.210 E0.7689
G1 X0.599 Y3.041 E0.7759
G1 X0.571 Y3.006 E0.7773
G1 X0.255 Y2.570 E0.7941
G1 X0.230 Y2.533 E0.7955
G1 X0.115 Y2.340 E0.8025
G1 X0.094 Y2.300 E0.8039
G1 X-0.001 Y2.104 E0.8107
G1 X-0.044 Y2.206 E0.8142
G1 X-0.069 Y2.256 E0.8159
G1 X-0.208 Y2.500 E0.8247
G1 X-0.238 Y2.547 E0.8264
G1 X-0.571 Y3.006 E0.8441
G1 X-0.599 Y3.041 E0.8455
G1 X-0.747 Y3.210 E0.8525
G1 X-0.778 Y3.242 E0.8539
G1 X-1.167 Y3.614 E0.8707
G1 X-1.201 Y3.644 E0.8721
G1 X-1.376 Y3.784 E0.8791
G1 X-1.412 Y3.810 E0.8805
G1 X-1.862 Y4.107 E0.8972
G1 X-1.900 Y4.130 E0.8986
G1 X-2.098 Y4.236 E0.9056
G1 X-2.138 Y4.256 E0.9070
G1 X-2.633 Y4.467 E0.9238
G1 X-2.675 Y4.483 E0.9252
